**kern	**dynam	**kern	**dynam	**kern	**dynam	**kern	**dynam	**mxhm
*part4	*part4	*part3	*part3	*part2	*part2	*part1	*part1	*part1
*staff4	*	*staff3	*	*staff2	*	*staff1	*	*
*I"Cello	*	*I"Viola	*	*I"2nd Violin	*	*I"1st Violin	*	*
*clefF4	*	*clefC3	*	*clefG2	*	*clefG2	*	*
*k[]	*	*k[]	*	*k[]	*	*k[]	*	*
*b#:	*	*b#:	*	*b#:	*	*b#:	*	*
*M2/2	*	*M2/2	*	*M2/2	*	*M2/2	*	*
*met(c|)	*	*met(c|)	*	*met(c|)	*	*met(c|)	*	*
=1	=1	=1	=1	=1	=1	=1	=1	=1
!	!LO:DY:a	!	!LO:DY:a	!	!	!LO:TX:a:B:t=No 7.  Allegro	!	!
4BBB#'	ff ff	4BB#'	ff	4B#'	.	4B#'	.	i
!	!	!	!	!	!LO:DY:a	!	!	!
4r	.	4r	.	4r	ff	4r	.	.
2r	.	2r	.	2r	.	2r	.	.
=2	=2	=2	=2	=2	=2	=2	=2	=2
4r	.	4r	.	4r	.	4r	.	.
(8BBB#L	.	(8BB#L	.	(8B#L	.	(8B#L	.	.
8DD#J	.	8D#J	.	8d#J	.	8d#J	.	.
4FF##')	.	4F##')	.	4f##')	.	4f##')	.	.
(8GG#L	.	(8G#L	.	(8g#L	.	(8g#L	.	.
8BBB#J	.	8BB#J	.	8B#J	.	8B#J	.	.
=3	=3	=3	=3	=3	=3	=3	=3	=3
4AAA##X)	.	4AA##X)	.	4A##X)	.	4A##X)	.	V6
4r	.	4r	.	4r	.	4r	.	.
2r	.	2r	.	2r	.	2r	.	.
=4	=4	=4	=4	=4	=4	=4	=4	=4
4r	.	4r	.	4r	.	4r	.	.
(8AAA##XL	.	(8AA##XL	.	(8A##XL	.	(8A##XL	.	.
8CC##J	.	8C##J	.	8c##J	.	8c##J	.	.
4FF##')	.	4F##')	.	4f##')	.	4f##')	.	.
(8GG#L	.	(8G#L	.	(8g#L	.	(8g#L	.	.
8AAA##J	.	8AA##J	.	8A##J	.	8A##J	.	.
=5	=5	=5	=5	=5	=5	=5	=5	=5
4BBB#)	.	4BB#)	.	4B#)	.	4B#)	.	i
8r	.	8r	.	8r	.	4r	.	.
8BB#	.	8B#	.	8F## 8d#	.	.	.	.
4BB#	.	4B#	.	4F## 4d#	.	4b#	.	.
8r	.	8r	.	8r	.	8r	.	.
8BB#	.	8B#	.	8F## 8d#	.	8cc##	.	.
=6	=6	=6	=6	=6	=6	=6	=6	=6
4BB#	.	4B#	.	4F## 4d#	.	4dd#	.	.
8r	.	8r	.	8r	.	8r	.	.
8BB#	.	8B#	.	8F## 8d#	.	8ee#	.	.
4BB#	.	4B#	.	4F## 4d#	.	4ff##	.	.
8r	.	8r	.	8r	.	8r	.	.
8BB#	.	8B#	.	8F## 8d#	.	8gg#	.	.
=7	=7	=7	=7	=7	=7	=7	=7	=7
4BB#	.	4B#	.	4F## 4d#	.	4ff##	.	.
8r	.	8r	.	8r	.	4r	.	.
8BB#	.	8B#	.	8F## 8d#	.	.	.	.
4BB#	.	4B#	.	4F## 4d#	.	4ff##	.	.
8r	.	8r	.	8r	.	8r	.	.
8BB#	.	8B#	.	8F## 8d#	.	8ee#	.	.
=8	=8	=8	=8	=8	=8	=8	=8	=8
4BB#	.	4B#	.	4F## 4d#	.	4dd#	.	.
8r	.	8r	.	8r	.	8r	.	.
8BB#	.	8B#	.	8F## 8d#	.	8cc##	.	.
4BB#	.	4B#	.	4F## 4d#	.	4dd#	.	.
8r	.	8r	.	8r	.	8r	.	.
8BB#	.	8B#	.	8F## 8d#	.	8b#	.	.
=9	=9	=9	=9	=9	=9	=9	=9	=9
4FF##	.	4A##X	.	4F## 4c##	.	4cc##	.	V
8r	.	8r	.	8r	.	4r	.	.
8BB#	.	8B#	.	8F## 8d#	.	.	.	.
4BB#	.	4B#	.	4F## 4d#	.	4b#	.	i
8r	.	8r	.	8r	.	8r	.	.
8BB#	.	8B#	.	8F## 8d#	.	8cc##	.	.
=10	=10	=10	=10	=10	=10	=10	=10	=10
4BB#	.	4B#	.	4F## 4d#	.	4dd#	.	.
8r	.	8r	.	8r	.	8r	.	.
8BB#	.	8B#	.	8F## 8d#	.	8ee#	.	.
4BB#	.	4B#	.	4F## 4d#	.	4ff##	.	.
8r	.	8r	.	8r	.	8r	.	.
8BB#	.	8B#	.	8F## 8d#	.	8gg##X	.	.
=11	=11	=11	=11	=11	=11	=11	=11	=11
4C##	.	4A#	.	4F## 4c##	.	4aa#	.	V(64)/v
8r	.	8r	.	8r	.	4r	.	.
8C##	.	8A#	.	8F## 8c##	.	.	.	.
4C##	.	4A#	.	4F## 4c##	.	4aa#	.	.
8r	.	8r	.	8r	.	8r	.	.
8C##	.	8A#	.	8F## 8c##	.	8ff##	.	.
=12	=12	=12	=12	=12	=12	=12	=12	=12
4C##	.	4E##X	.	4B# 4c##	.	4gg##X	.	V7/v
8r	.	8r	.	8r	.	8r	.	.
8C##	.	8F##	.	8A# 8c##	.	8ff##	.	.
4C##	.	4E##	.	4B# 4c##	.	4gg##	.	.
8r	.	8r	.	8r	.	8r	.	.
8C##	.	8G##X	.	8B# 8c##	.	8ee##X	.	.
=13	=13	=13	=13	=13	=13	=13	=13	=13
4FF##	.	4F##	.	4A# 4c##	.	4ff##	.	V[v
8r	.	8r	.	8r	.	4r	.	.
8FF##	.	8F##	.	8A##X 8c##	.	.	.	.
4FF##	.	4F##	.	4A## 4c##	.	4gg#	.	V7(+9)
8r	.	8r	.	8r	.	8r	.	.
8FF##	.	8F##	.	8A## 8c##	.	8ff##	.	.
=14	=14	=14	=14	=14	=14	=14	=14	=14
4FF##	.	4F##	.	4A##X 4c##	.	4ee#	.	V7
8r	.	8r	.	8r	.	8r	.	.
8FF##	.	8F##	.	8A## 8c##	.	8dd#	.	.
4FF##	.	4F##	.	4A## 4c##	.	4ee#	.	.
8r	.	8r	.	8r	.	8r	.	.
8FF##	.	8F##	.	8A## 8c##	.	8cc##	.	.
=15	=15	=15	=15	=15	=15	=15	=15	=15
4FF##	.	4B#	.	4F## 4d#	.	4dd#	.	i
8r	.	8r	.	8r	.	4r	.	.
8FF##	.	8B#	.	8F## 8d#	.	.	.	.
4FF##	.	4B#	.	4F## 4d#	.	4ee#	.	.
8r	.	8r	.	8r	.	8r	.	.
8FF##	.	8B#	.	8F## 8d#	.	8dd#	.	.
=16	=16	=16	=16	=16	=16	=16	=16	=16
4FF##	.	4c##	.	4F## 4e#	.	4cc##	.	V7]
8r	.	8r	.	8r	.	8r	.	.
8FF##	.	8c##	.	8F## 8e#	.	8b#	.	.
4FF##	.	4c##	.	4F## 4e#	.	4cc##	.	.
8r	.	8r	.	8r	.	8r	.	.
8FF##	.	8c##	.	8F## 8e#	.	8a##X	.	.
=17	=17	=17	=17	=17	=17	=17	=17	=17
4BB#	.	4B#	.	4F## 4d#	.	4b#	.	i
8r	.	8r	.	8r	.	4r	.	.
8BB#	.	8B#	.	8F## 8d#	.	.	.	.
!	!	!	!LO:DY:a	!	!	!	!	!
4E#	p	4G#	p p	4c#	.	(4.gg#	p	.bII6
8r	.	8r	.	8r	.	.	.	.
8E#	.	8G#	.	8c#	.	8ff#	.	.
=18	=18	=18	=18	=18	=18	=18	=18	=18
2r	.	2r	.	2r	.	4.ee#	.	.
.	.	.	.	.	.	8dd#	.	.
4E#	.	4G#	.	4c#	.	4ee#	.	.
8r	.	8r	.	8r	.	4cc#)	.	.
8E#	.	8G#	.	8c#	.	.	.	.
=19	=19	=19	=19	=19	=19	=19	=19	=19
2r	.	2r	.	2r	.	(2dd#	.	.
4F##	.	4B#	.	4d#	.	4.ee#	.	V(64)
8r	.	8r	.	8r	.	.	.	.
8F##	.	8B#	.	8d#	.	8dd#	.	.
=20	=20	=20	=20	=20	=20	=20	=20	=20
2r	.	1r	.	2r	.	4.cc#	.	V(6b5)
.	.	.	.	.	.	8b#	.	.
4F##	.	.	.	4d#	.	4.cc#	.	.
8r	.	.	.	8r	.	.	.	.
8F##	.	.	.	8d#	.	8a##X)	.	.
=21	=21	=21	=21	=21	=21	=21	=21	=21
4F##	.	4B#	p	2.d#	.	2.b#	.	i64
2r	.	8r	.	.	.	.	.	.
.	.	8F##	.	.	.	.	.	.
.	.	4F##	.	.	.	.	.	.
(4BB#	<	8r	<	(4d#	<	(4bb#	<	i
.	.	8F##	.	.	.	.	.	.
=22	=22	=22	=22	=22	=22	=22	=22	=22
2C##	.	4F##	.	2e#	.	2aa##X	.	V43
.	.	8r	.	.	.	.	.	.
.	.	8F##	.	.	.	.	.	.
2E#	[ >	4F##	[ >	4g#)	[ >	2gg#	[ >	V2(+9)
.	.	8r	.	(4e#	.	.	.	.
.	.	8F##	.	.	.	.	.	.
=23	=23	=23	=23	=23	=23	=23	=23	=23
2.D#)	.	4F##	.	2a##X	.	2.ff##)	.	i6
.	.	8r	.	.	.	.	.	.
.	.	8F##	.	.	.	.	.	.
.	.	4F##	.	4b#)	.	.	.	.
(4BB#	] p	8r	]	(4d#	] p	(4bb#	]	i
.	.	8F##	.	.	.	.	.	.
=24	=24	=24	=24	=24	=24	=24	=24	=24
!	!	!	!	!	!	!	!LO:DY:a	!
4C##	.	4F##	.	4e#	.	4aa##X	p	V43
4BB#	.	8r	.	4d#	.	4bb#	.	.
.	.	8F##	.	.	.	.	.	.
4AA##X	.	4F##	.	4c##	.	4ccc##	.	V65
4BB#	.	8r	.	4B#	.	4ddd#	.	i
.	.	8F##	.	.	.	.	.	.
=25	=25	=25	=25	=25	=25	=25	=25	=25
4FF##)	.	4F##	.	4A##X)	.	4ccc##)	.	V
2r	.	8r	.	2r	.	2r	.	.
.	.	8F##	.	.	.	.	.	.
.	.	4F##	.	.	.	.	.	.
(4BB#	<	8r	.	(4d#	<	(4bb#	<	i
.	.	8F##	.	.	.	.	.	.
=26	=26	=26	=26	=26	=26	=26	=26	=26
2C##	.	4F##	.	2e#	.	2aa##X	.	V43
.	.	8r	.	.	.	.	.	.
.	.	8F##	.	.	.	.	.	.
2E#	[ > ]]	4F##	.	4g#)	[ >	2gg#	[ > ]]	V2(+9)
.	.	8r	.	(4e#	<[	.	.	.
.	.	8F##	.	.	.	.	.	.
=27	=27	=27	=27	=27	=27	=27	=27	=27
2.D#)	.	4F##	.	2a##X	.	2.ff##)	.	i6
.	.	8r	.	.	.	.	.	.
.	.	8F##	.	.	.	.	.	.
.	.	4F##	.	4b#)	.	.	.	.
(4BB#	p	8r	.	(4b#	[	(4bb#	.	i
.	.	8D#	.	.	.	.	.	.
=28	=28	=28	=28	=28	=28	=28	=28	=28
4FF##	.	4F##	.	4dd#	p	4ddd#	.	i64
4AA##X	.	8r	.	4cc##	.	4ccc##	.	V65
.	.	8E#	.	.	.	.	.	.
4BB#)	.	4D#	.	4b#	.	4bb#	.	i
4C##	.	8r	.	4a##X)	.	4aa##X)	.	V43
.	.	8E#	.	.	.	.	.	.
=29	=29	=29	=29	=29	=29	=29	=29	=29
4BB#	.	4D#	.	4b#	.	4bb#	.	V\\
2r	.	8r	.	4r	.	4r	.	.
.	.	8BB#	.	.	.	.	.	.
.	.	4BB#	.	2r	.	2r	.	.
(4BBB# 4BB#	.	(4BB# 4B#	.	.	.	.	.	.
=30	=30	=30	=30	=30	=30	=30	=30	=30
2AA## (1AAA##	<	2A##X (1AA##X	<	2r	.	2r	.	#viio7
2GG#	.	2G#	.	4r	.	4r	.	.
.	.	.	.	(4e#	<	(4e#	<	.
=31	=31	=31	=31	=31	=31	=31	=31	=31
4FF##) 4AAA##)	[ >	4F##) 4AA##X)	[ >	2A##X	.	2a##X	.	V65
4rGG	p	4rF	p	.	.	.	.	.
4rGG	.	4rF	.	2B#)	[[	2b#)	[[	i
(4BBB#	.	(4BB#	.	.	.	.	.	.
=32	=32	=32	=32	=32	=32	=32	=32	=32
4AAA##X	]	4AA##X	]	1r	.	1r	.	V65
4BBB#	.	4BB#	.	.	.	.	.	.
4CC##	.	4C##	.	.	.	.	.	.
4DD#	.	4D#	.	.	.	.	.	.
=33	=33	=33	=33	=33	=33	=33	=33	=33
4CC##)	.	4C##)	.	1r	.	1r	.	V43
2r	.	2r	.	.	.	.	.	.
(4BBB# 4BB#	.	(4BB# 4B#	.	.	.	.	.	.
=34	=34	=34	=34	=34	=34	=34	=34	=34
2AA##X (1AAA##X	.	2A##X 1AA##X	.	2r	.	2r	.	#viio7
2GG#	.	2G#	.	4r	.	4r	.	.
.	.	.	.	(4e#	<	(4ee#	<	.
=35	=35	=35	=35	=35	=35	=35	=35	=35
4FF##) 4AAA##X)	.	4F##) 4AA##X	.	2a##X	.	2aa##X	.	V65
4rGG	.	4rF	.	.	.	.	.	.
4rGG	.	4rF	.	2b#)	[[	2bb#)	[[	i
!	!LO:DY:a	!	!	!	!	!	!	!
(4BBB#	p p	(4BB#	.	.	.	.	.	.
=36	=36	=36	=36	=36	=36	=36	=36	=36
4DD#	.	4D#	.	2r	.	1r	.	V6
4CC##	.	4C##	.	.	.	.	.	.
4BBB#	.	4BB#	.	4r	.	.	.	.
4AAA##X)	.	4AA##X)	.	(4F##	.	.	.	.
=37	=37	=37	=37	=37	=37	=37	=37	=37
(4FF##	.	(4F##	.	4d#	p	2r	.	i64
4EE#	.	4E#	.	4c##	.	.	.	.
4DD#	.	4D#	.	4B#	.	4r	p	i6
4CC##)	.	4C##)	.	4A##X)	.	(4a##X	.	V64
=38	=38	=38	=38	=38	=38	=38	=38	=38
!LO:TX:b:i:t=cresc.	!	!LO:TX:b:i:t=cresc.	!	!LO:TX:b:i:t=cresc.	!	!LO:TX:b:i:t=cresc.	!	!
(4DD#	.	(4D#	.	(4B#	.	4ff##	.	i6
4CC##	.	4AA##X	.	4c##	.	4ee#	.	.
4BBB#	.	4BB#	.	4d#	.	4dd#	.	i
4AAA##X	.	4F##)	.	4e#	.	4cc##	.	V65
=39	=39	=39	=39	=39	=39	=39	=39	=39
4BBB#	.	(4F##	.	4d#	.	4dd#	.	i
4EE#	.	4G#	.	4e#	.	4cc##	.	iio6
4FF##)	.	4F##	.	4d#	.	4b#	.	V(64)
*clefC4	*	*	*	*	*	*	*	*
4f##	.	4e#)	.	4c##)	.	4a##X)	.	V43
=40	=40	=40	=40	=40	=40	=40	=40	=40
!	!	!	!LO:DY:a	!	!LO:DY:a	!	!	!
4f##	f	4d#	f f	4B#	f	4b#	.	i\\
8r	.	8r	.	8r	.	4r	.	.
8f##	.	8b#	.	8dd#	.	.	.	.
4f##	.	4b#	.	4dd#	.	2r	.	i64
8r	.	8r	.	8r	.	.	.	.
8f##	.	8b#	.	8dd#	.	.	.	.
=41	=41	=41	=41	=41	=41	=41	=41	=41
4f##	.	4b#	.	4dd#	.	4r	.	.
8r	.	8r	.	8r	.	(8B#L	.	.
8f##	.	8b#	.	8dd#	.	8d#J	.	.
4f##	.	4b#	.	4dd#	.	4f##')	.	.
8r	.	8r	.	8r	.	(8g#L	.	.
8f##	.	8b#	.	8dd#	.	8B#J	.	.
=42	=42	=42	=42	=42	=42	=42	=42	=42
4f##	.	4cc##	.	4ee#	.	4A##X')	.	V7
8r	.	8r	.	8r	.	4r	.	.
8f##	.	8cc##	.	8ee#	.	.	.	.
4f##	.	4cc##	.	4ee#	.	2r	.	.
8r	.	8r	.	8r	.	.	.	.
8f##	.	8cc##	.	8ee#	.	.	.	.
=43	=43	=43	=43	=43	=43	=43	=43	=43
4f##	.	4cc##	.	4ee#	.	4r	.	.
8r	.	8r	.	8r	.	(8A##XL	.	.
8f##	.	8cc##	.	8ee#	.	8c##J	.	.
4f##	.	4cc##	.	4ee#	.	4f##')	.	.
8r	.	8r	.	8r	.	(8g#L	.	.
8f##	.	8cc##	.	8ee#	.	8A##J	.	.
=44	=44	=44	=44	=44	=44	=44	=44	=44
4f##	.	4b#	.	4dd#	.	4B#')	.	i64
8r	.	8r	.	8r	.	4r	.	.
8B#	.	8d#	.	8f##	.	.	.	.
4B#	.	4d#	.	4f##	.	4b#	.	i
8r	.	8r	.	8r	.	8r	.	.
8B#	.	8d#	.	8f##	.	8cc##	.	.
=45	=45	=45	=45	=45	=45	=45	=45	=45
4B#	.	4d#	.	4f##	.	4dd#	.	.
8r	.	8r	.	8r	.	8r	.	.
8B#	.	8d#	.	8f##	.	8ee#	.	.
4B#	.	4d#	.	4f##	.	4ff##	.	.
8r	.	8r	.	8r	.	8r	.	.
8B#	.	8d#	.	8f##	.	8gg##X	.	.
=46	=46	=46	=46	=46	=46	=46	=46	=46
4c##	>	4a#	>	4f##	>	(2aa#	>	V(64)/v
8r	.	8r	.	8r	.	.	.	.
8c##	.	8f##	.	8a#	.	.	.	.
!	!LO:DY:a	!	!	!	!	!	!	!
4c##	] p p	4f##	]	4a#	] p	4bb#)	] p	.
8r	.	8r	.	8r	.	8r	.	.
8c##	.	8f##	.	8a#	.	8aa#	.	.
=47	=47	=47	=47	=47	=47	=47	=47	=47
.	.	.	.	.	.	16qqaa#/	.	V7/V
4c##	.	4e##X	.	4b#	.	4gg##X	.	.
8r	.	8r	.	8r	.	8r	.	.
8c##	.	8f##	.	8a#	.	8ff##	.	.
4c##	.	4e##	.	4b#	.	4gg##	.	.
8r	.	8r	.	8r	.	8r	.	.
8c##	.	8g##X	.	8b#	.	8ee##X	.	.
=48	=48	=48	=48	=48	=48	=48	=48	=48
4F##	>	4f##	>	4a#	>	(2ff##	>	v
8r	.	8r	.	8r	.	.	.	.
8F##	.	8c##	.	8a#	.	.	.	.
4F##	] p	4c##	] p	4a##X	] p	4gg#)	] p	V7(+9)
8r	.	8r	.	8r	.	8r	.	.
8F##	.	8c##	.	8a##	.	8ff##	.	.
=49	=49	=49	=49	=49	=49	=49	=49	=49
.	.	.	.	.	.	16qqff##/	.	V7
4F##	.	4c##	.	4a##X	.	4ee#	.	.
8r	.	8r	.	8r	.	8r	.	.
8F##	.	8B#	.	8b#	.	8dd#	.	.
4F##	.	4A##X	.	4f##	.	4ee#	.	V7
8r	.	8r	.	8r	.	8r	.	.
8F##	.	8A##	.	8f##	.	8cc##	.	.
=50	=50	=50	=50	=50	=50	=50	=50	=50
4F##	>	4B#	>	4f##	>	(2dd#	>	i64
8r	.	8r	.	8r	.	.	.	.
8F##	.	8B#	.	8f##	.	.	.	.
4F##	] p	4B#	] p	4d#	] p	4ee#)	] p	i64
8r	.	8r	.	8r	.	8r	.	.
8F##	.	8B#	.	8d#	.	8dd#	.	.
=51	=51	=51	=51	=51	=51	=51	=51	=51
!LO:TX:b:i:t=cresc.	!	!LO:TX:b:i:t=cresc.	!	!LO:TX:b:i:t=cresc.	!	!LO:TX:b:i:t=cresc.	!	!
.	.	.	.	.	.	16qqdd#/	.	V7
4F##	.	4c##	.	4e#	.	4cc##	.	.
8r	.	8r	.	8r	.	8r	.	.
8F##	.	8c##	.	8e#	.	8b#	.	.
4F##	.	4c##	.	4e#	.	4cc##	.	V7
8r	.	8r	.	8r	.	8r	.	.
8F##	.	8c##	.	8e#	.	8a##X	.	.
=52	=52	=52	=52	=52	=52	=52	=52	=52
(2F##	ff	4B#	.	4d#	.	4b#	.	i64
.	.	4r	.	4r	.	4r	.	.
4G#)	.	2r	.	2r	.	2r	.	.
8r	.	.	.	.	.	.	.	.
8F##	.	.	.	.	.	.	.	.
=53	=53	=53	=53	=53	=53	=53	=53	=53
4E#	.	(2f## 2.B#	ff	1r	.	1r	.	iv
8r	.	.	.	.	.	.	.	.
8D#	.	.	.	.	.	.	.	.
4E#	.	4g#)	.	.	.	.	.	.
8r	.	8rF	.	.	.	.	.	.
8D#	.	8f##	.	.	.	.	.	.
=54	=54	=54	=54	=54	=54	=54	=54	=54
4C##	.	4e#	.	(2a#	ff	1r	.	V6/III
8r	.	8r	.	.	.	.	.	.
8BB#	.	8D#	.	.	.	.	.	.
4AA#	.	4C##	.	4b#)	.	.	.	.
8r	.	8r	.	4a#	.	.	.	.
8BB#	.	8D#	.	.	.	.	.	.
=55	=55	=55	=55	=55	=55	=55	=55	=55
4AA#	.	4C##	.	4a#	.	(2ee#	ff	.
8r	.	8r	.	8r	.	.	.	.
8GG#	.	8A#	.	8c##	.	.	.	.
4FF##	.	4A#	.	4d#	.	4ff##)	.	III6
8r	.	8r	.	8r	.	8r	.	.
8EE#	.	8A#	.	8e#	.	8gg#	.	V43/III
=56	=56	=56	=56	=56	=56	=56	=56	=56
[1DD# [1AA#	p	[1A#	p	(2f##	p	[2ff##	p	III.I
.	.	.	.	[2F##)	.	(8ff##L]	.	.
.	.	.	.	.	.	8ee#	.	.
.	.	.	.	.	.	8dd#	.	.
.	.	.	.	.	.	8cc##J	.	.
=57	=57	=57	=57	=57	=57	=57	=57	=57
1DD#] 1AA#]	.	1A#]	.	1F##]	.	8dd#L	.	I
.	.	.	.	.	.	8cc##	.	.
.	.	.	.	.	.	8b#	.	.
.	.	.	.	.	.	8a#J	.	.
.	.	.	.	.	.	8g#L	.	.
.	.	.	.	.	.	8f##	.	.
.	.	.	.	.	.	8e#	.	.
.	.	.	.	.	.	8d#J)	.	.
=58	=58	=58	=58	=58	=58	=58	=58	=58
!LO:TX:b:i:t=cresc.	!	!LO:TX:b:i:t=cresc.	!	!LO:TX:b:i:t=cresc.	!	!LO:TX:b:i:t=cresc.	!	!
[1EE# [1AA#	.	[1A#	.	[1G#	.	(4.d#	.	V43(4)
.	.	.	.	.	.	8c##)	.	V43
.	.	.	.	.	.	2aa#	.	.
=59	=59	=59	=59	=59	=59	=59	=59	=59
!	!	!	!	!	!	!LO:TX:b:i:t=espress.	!	!
!	!	!	!	!	!	!LO:TX:a:i:t=poco riten.	!	!
1EE#] 1AA#]	.	1A#]	.	1G#]	.	2aa#	.	.
.	.	.	.	.	.	2aa#	.	.
=60	=60	=60	=60	=60	=60	=60	=60	=60
!	!	!	!LO:DY:a	!	!	!LO:TX:a:B:t=in tempo	!	!
((1DD# 1AA#	p	(2f##	p p	(1F##	.	(2aa#	p	I
.	.	(8f##L)	.	.	.	2ddd#	.	.
.	.	8e#	.	.	.	.	.	.
.	.	8d#	.	.	.	.	.	.
.	.	8c##J	.	.	.	.	.	.
=61	=61	=61	=61	=61	=61	=61	=61	=61
1DD#)) 1AA#	.	8d#L	.	1F##)	.	2fff##	.	.
.	.	8c##	.	.	.	.	.	.
.	.	8B#	.	.	.	.	.	.
.	.	8A#J	.	.	.	.	.	.
.	.	8G#L	.	.	.	2aaa#)	.	.
.	.	8F##	.	.	.	.	.	.
.	.	8E#	.	.	.	.	.	.
.	.	8D#J)	.	.	.	.	.	.
=62	=62	=62	=62	=62	=62	=62	=62	=62
!LO:TX:b:i:t=cresc.	!	!LO:TX:b:i:t=cresc.	!	!LO:TX:b:i:t=cresc.	!	!LO:TX:b:i:t=cresc.	!	!
[1EE# [1AA#	.	(4.D#	.	(1G#	.	(2aa#	.	V43
.	.	8C##)	.	.	.	.	.	.
.	.	2a#	.	.	.	2ccc##	.	.
=63	=63	=63	=63	=63	=63	=63	=63	=63
!	!	!LO:TX:b:i:t=poco riten.	!	!	!	!	!	!
!	!	!LO:TX:b:i:t=espress.	!	!	!	!	!	!
1EE#] 1AA#]	.	2a#	.	1G#)	.	2eee#	.	.
.	.	2a#	.	.	.	2aaa#)	.	.
=64	=64	=64	=64	=64	=64	=64	=64	=64
!	!	!LO:TX:b:B:t=in tempo	!	!	!	!	!	!
[1DD# [1AA#	p	(2a#	p	[2ff##	p	(2aa#	p	I
.	.	2f##	.	(8ff##L]	.	2ddd#	.	.
.	.	.	.	8ee#	.	.	.	.
.	.	.	.	8dd#	.	.	.	.
.	.	.	.	8cc##J	.	.	.	.
=65	=65	=65	=65	=65	=65	=65	=65	=65
1DD#] 1AA#]	.	2d#	.	8dd#L	.	2fff##	.	.
.	.	.	.	8cc##	.	.	.	.
.	.	.	.	8b#	.	.	.	.
.	.	.	.	8a#J	.	.	.	.
.	.	2A#)	.	8g#L	.	2aaa#)	.	.
.	.	.	.	8f##	.	.	.	.
.	.	.	.	8e#	.	.	.	.
.	.	.	.	8d#J)	.	.	.	.
=66	=66	=66	=66	=66	=66	=66	=66	=66
!LO:TX:b:i:t=cresc.	!	!LO:TX:b:i:t=cresc.	!	!LO:TX:b:i:t=cresc.	!	!LO:TX:b:i:t=cresc.	!	!
[1EE# [1AA#	.	(2a#	.	(4.d#	.	[2gg#	.	V43
.	.	.	.	8c##)	.	.	.	.
!	!	!	!	!LO:TX:b:i:t=poco riten.	!	!	!	!
!	!	!	!	!LO:TX:b:i:t=espress.	!	!	!	!
.	.	2e#	.	2aa#	.	(8gg#L]	.	.
.	.	.	.	.	.	8ff##	.	.
.	.	.	.	.	.	8ee#	.	.
.	.	.	.	.	.	8dd#J	.	.
=67	=67	=67	=67	=67	=67	=67	=67	=67
1EE#] 1AA#]	.	2c##	.	2aa#	.	8cc##L	.	.
.	.	.	.	.	.	8b#	.	.
.	.	.	.	.	.	8a#	.	.
.	.	.	.	.	.	8g#J	.	.
.	.	2A#)	.	2aa#	.	8a#L	.	.
.	.	.	.	.	.	8g#	.	.
.	.	.	.	.	.	8f##	.	.
.	.	.	.	.	.	8e#J)	.	.
=68	=68	=68	=68	=68	=68	=68	=68	=68
!	!	!	!	!LO:TX:a:B:t=in tempo	!	!	!	!
((2FF## 2AA#	.	(2A#	.	(2aa#	.	(4.e#	.	I6
.	.	.	.	.	.	8d#)	.	.
2FF##)) 2AA#	.	2A#)	.	2aa#)	.	2ccc#	.	V65/IV
=69	=69	=69	=69	=69	=69	=69	=69	=69
!LO:TX:b:i:t=rit.	!	!LO:TX:b:i:t=rit.	!	!LO:TX:b:i:t=rit.	!	!LO:TX:b:i:t=rit.	!	!
1F##	.	1A#	.	1d##X	.	2ccc#	.	#viio65/ii
.	.	.	.	.	.	2ccc#	.	.
=70	=70	=70	=70	=70	=70	=70	=70	=70
1B#	.	1d#	.	1f#	.	(4.a#	.	#viio65(7)/V
.	.	.	.	.	.	8g##X)	.	#viio65/V
.	.	.	.	.	.	2ddd#	.	.
=71	=71	=71	=71	=71	=71	=71	=71	=71
1f#	.	1B#	.	1g##X	.	2ddd#	.	#viio2/V
.	.	.	.	.	.	2ddd#	.	.
=72	=72	=72	=72	=72	=72	=72	=72	=72
!	!	!	!	!	!	!LO:TX:b:B:t=in tempo	!	!
(2B	p	(2c##	p	(2g#	p	(2eee#	p	viio2
[2A#)	.	[2d#)	.	[2f##)	.	4fff##	.	V(64)
.	.	.	.	.	.	4ggg#	.	.
=73	=73	=73	=73	=73	=73	=73	=73	=73
1A#]	.	2d#]	.	(2f##]	.	2aaa#)	.	.
.	.	(2e#	.	4g#	.	(2cc##	.	V7
.	.	.	.	4a#)	.	.	.	.
=74	=74	=74	=74	=74	=74	=74	=74	=74
[1d#	.	2f##	.	(2a#	.	2cc#	.	I[V7/IV
.	.	2d#	.	(2g#)	.	2b#	.	IV
=75	=75	=75	=75	=75	=75	=75	=75	=75
1d#_	.	2e#	.	(2g#)	.	2cc##X	.	V43
.	.	[2f##)	.	(2a#)	.	2dd#	.	I
=76	=76	=76	=76	=76	=76	=76	=76	=76
(2d#]	.	1f##]	.	[1a#)	.	2cc#)	.	V/IV]
(2d##X)	.	.	.	.	.	[2b#	.	iv.V65
=77	=77	=77	=77	=77	=77	=77	=77	=77
!LO:TX:b:i:t=cresc.	!	!LO:TX:b:i:t=cresc.	!	!LO:TX:b:i:t=cresc.	!	!LO:TX:b:i:t=cresc.	!	!
2.d##X)	.	1f## 1a#	.	4a#]	.	1b#_	.	.
.	.	.	.	(8B#L	.	.	.	.
.	.	.	.	8d##XJ	.	.	.	.
.	.	.	.	4f##')	.	.	.	.
*clefF4	*	*	*	*	*	*	*	*
(8BB#L	.	.	.	(8d##L	.	.	.	.
8D##XJ	.	.	.	8f##J	.	.	.	.
=78	=78	=78	=78	=78	=78	=78	=78	=78
!	!	!	!LO:DY:a	!	!	!	!	!
4E#')	ff	4B#'	ff ff	4g#')	.	4b#]	ff	i
(8EE#L	.	(8E#L	.	(8e#L	.	(8e#L	.	.
8GG#J	.	8G#J	.	8g#J	.	8g#J	.	.
4BB#')	.	4B#')	.	4b#')	.	4b#')	.	.
(8C#L	.	(8c#L	.	(8cc#L	.	(8cc#L	.	.
8EE#J	.	8E#J	.	8e#J	.	8e#J	.	.
=79	=79	=79	=79	=79	=79	=79	=79	=79
4DD##X')	.	4D##X')	.	4d##X')	.	4d##X')	.	V6
4r	.	4r	.	4r	.	4r	.	.
2r	.	2r	.	2r	.	2r	.	.
=80	=80	=80	=80	=80	=80	=80	=80	=80
4r	.	4r	.	4r	.	4r	.	.
(8DD##XL	.	(8D##XL	.	(8d##XL	.	(8d##XL	.	.
8FF##J	.	8F##J	.	8f##J	.	8f##J	.	.
4BB#')	.	4B#')	.	4b#')	.	4b#')	.	.
(8C#L	.	(8c#L	.	(8cc#L	.	(8cc#L	.	.
8DD##J	.	8D##J	.	8d##J	.	8d##J	.	.
=81	=81	=81	=81	=81	=81	=81	=81	=81
4EE#)	.	4E#)	.	4e#)	.	4e#)	.	i
8r	.	8r	.	8r	.	4r	.	.
8E#	.	8e#	.	8g# 8b#	.	.	.	.
4E#	.	4e#	.	4g# 4b#	.	4ee#	.	.
8r	.	8r	.	8r	.	8r	.	.
8E#	.	8e#	.	8g# 8b#	.	8ff##	.	.
=82	=82	=82	=82	=82	=82	=82	=82	=82
4E#	.	4e#	.	4g# 4b#	.	4gg#	.	.
8r	.	8r	.	8r	.	8r	.	.
8E#	.	8e#	.	8g# 8b#	.	8aa#	.	.
4E#	.	4e#	.	4g# 4b#	.	4bb#	.	.
8r	.	8r	.	8r	.	8r	.	.
8E#	.	8e#	.	8g# 8b#	.	8ccc#	.	.
=83	=83	=83	=83	=83	=83	=83	=83	=83
4E#	.	4e#	.	4g# 4b#	.	4bb#	.	.
8r	.	8r	.	8r	.	4r	.	.
8E#	.	8e#	.	8g# 8b#	.	.	.	.
4E#	.	4e#	.	4g# 4b#	.	4bb#	.	.
8r	.	8r	.	8r	.	8r	.	.
8E#	.	8e#	.	8g# 8b#	.	8aa#	.	.
=84	=84	=84	=84	=84	=84	=84	=84	=84
.	.	.	.	.	.	16qqgg#/LL	.	.
.	.	.	.	.	.	16qqaa#/JJ	.	.
4E#	.	4e#	.	4g# 4b#	.	4gg#	.	.
8r	.	8r	.	8r	.	8r	.	.
8E#	.	8e#	.	8g# 8b#	.	8ff##	.	.
4E#	.	4e#	.	4g# 4b#	.	4gg#	.	.
8r	.	8r	.	8r	.	8r	.	.
8E#	.	8e#	.	8g# 8b#	.	8ee#	.	.
=85	=85	=85	=85	=85	=85	=85	=85	=85
4BB#	.	4d##X	.	4f## 4b#	.	4ff##	.	V
8r	.	8r	.	8r	.	4r	.	.
8E#	.	8e#	.	8g# 8b#	.	.	.	.
4E#	.	4e#	.	4g# 4b#	.	4ee#	.	i
8r	.	8r	.	8r	.	8r	.	.
8E#	.	8e#	.	8g# 8b#	.	8ff##	.	.
=86	=86	=86	=86	=86	=86	=86	=86	=86
4E#	.	4e#	.	4g# 4b#	.	4gg#	.	i
8r	.	8r	.	8r	.	8r	.	.
8E#	.	8e#	.	8g# 8b#	.	8aa#	.	.
4E#	.	4e#	.	4g# 4b#	.	4bb#	.	.
8r	.	8r	.	8r	.	8r	.	.
8E#	.	8e#	.	8g# 8b#	.	8ccc##	.	.
=87	=87	=87	=87	=87	=87	=87	=87	=87
4F##	.	4d#	.	4f## 4b#	.	4ddd#	.	V(64)/v
8r	.	8r	.	8r	.	4r	.	.
8F##	.	8d#	.	8f## 8b#	.	.	.	.
*clefC4	*	*	*	*	*	*	*	*
4f##	.	4d#	.	4f## 4b#	.	4ddd#	.	.
8r	.	8r	.	8r	.	8r	.	.
8f##	.	8d#	.	8f## 8b#	.	8bb#	.	.
=88	=88	=88	=88	=88	=88	=88	=88	=88
.	.	.	.	.	.	16qqccc##/LL	.	V2/V
.	.	.	.	.	.	16qqddd#/JJ	.	.
4f##	.	4e#	.	4f## 4a##X	.	4ccc##	.	.
8r	.	8r	.	8r	.	8r	.	.
8f##	.	8d#	.	8f## 8b#	.	8bb#	.	.
4f##	.	4e#	.	4f## 4a##	.	4ccc##	.	.
8r	.	8r	.	8r	.	8r	.	.
8f##	.	8e#	.	8f## 8a##	.	8aa##X	.	.
=89	=89	=89	=89	=89	=89	=89	=89	=89
4B#	.	4d#	.	4f## 4b#	.	4bb#	.	v
8r	.	8r	.	8r	.	4r	.	.
8B#	.	8e	.	8f## 8b#	.	.	.	.
4B#	.	4e	.	4f## 4b#	.	4ccc#	.	V
8r	.	8r	.	8r	.	8r	.	.
8B#	.	8e	.	8f## 8b#	.	8bb#	.	.
=90	=90	=90	=90	=90	=90	=90	=90	=90
.	.	.	.	.	.	16qqaa#/LL	.	V7
.	.	.	.	.	.	16qqbb#/JJ	.	.
4B#	.	4e	.	4f## 4b#	.	4aa#	.	.
8r	.	8r	.	8r	.	8r	.	.
8B#	.	8e#X	.	8b#	.	8gg#	.	.
4B#	.	4f##	.	4b#	.	4aa#	.	V7
8r	.	8r	.	8r	.	8r	.	.
8B#	.	8e	.	8b#	.	8ff##	.	.
=91	=91	=91	=91	=91	=91	=91	=91	=91
4B#	.	4e#X	.	4b#	.	4gg#	.	i64
8r	.	8r	.	8r	.	4r	.	.
8BB#	.	8B# 8e#	.	8b#	.	.	.	.
4BB#	.	4B# 4f##	.	4b#	.	4aa#	.	V7
8r	.	8r	.	8r	.	8r	.	.
8BB#	.	8B# 8e#	.	8b#	.	8gg#	.	.
=92	=92	=92	=92	=92	=92	=92	=92	=92
.	.	.	.	.	.	16qqff##/LL	.	V
.	.	.	.	.	.	16qqgg#/JJ	.	.
4BB#	.	4A#	.	4b#	.	4ff##	.	.
8r	.	8r	.	8r	.	8r	.	.
8BB#	.	8G#	.	8b#	.	8ee#	.	.
4BB#	.	4A#	.	4b#	.	4ff##	.	V7
8r	.	8r	.	8r	.	8r	.	.
8BB#	.	8F##	.	8b#	.	8dd##X	.	.
=93	=93	=93	=93	=93	=93	=93	=93	=93
4EE#	.	4E# 4G#	.	4e# 4b#	.	4ee#	.	i\\
!	!	!	!	!LO:TX:b:i:t=sempre	!	!	!	!
4r	.	4r	.	4r	.	4r	.	.
2r	.	2r	.	4cc#	.	2r	.	.
.	.	.	.	8r	f	.	.	.
.	.	.	.	8b#	.	.	.	.
=94	=94	=94	=94	=94	=94	=94	=94	=94
1r	.	1r	.	4a#	.	1dd##X	sf	V2
.	.	.	.	8r	.	.	.	.
.	.	.	.	8g#	.	.	.	.
.	.	.	.	4a#	.	.	.	.
.	.	.	.	8r	.	.	.	.
.	.	.	.	8f##	.	.	.	.
=95	=95	=95	=95	=95	=95	=95	=95	=95
1r	.	2r	.	4g#	.	1ee#	f	iv
.	.	.	.	4r	.	.	.	.
!	!	!LO:TX:b:i:t=sempre	!	!	!	!	!	!
.	.	4cc#	.	4a#	.	.	.	.
.	.	8r	f	8r	.	.	.	.
.	.	8b#	.	8g#	.	.	.	.
=96	=96	=96	=96	=96	=96	=96	=96	=96
1r	.	4a#	.	4f##	.	1ff##	f	V43
.	.	8r	.	8r	.	.	.	.
.	.	8g#	.	8e#	.	.	.	.
.	.	4a#	.	4f##	.	.	.	.
.	.	8r	.	8r	.	.	.	.
.	.	8f##	.	8d##X	.	.	.	.
=97	=97	=97	=97	=97	=97	=97	=97	=97
1r	.	4B#	.	4e#	.	4gg#	.	i64
.	.	4r	.	8r	.	4r	.	.
.	.	.	.	8e#	.	.	.	.
.	.	2r	.	4dd#	.	4ff#	.	vii.viio7
.	.	.	.	8r	.	8r	.	.
.	.	.	.	8cc#	.	8ee#	.	.
=98	=98	=98	=98	=98	=98	=98	=98	=98
2r	.	1G##X	sf	4b#	.	4dd#	.	.
.	.	.	.	8r	.	8r	.	.
.	.	.	.	8e#	.	8cc#	.	.
4r	.	.	.	4e#	.	4dd#	.	.
8r	.	.	.	4r	.	8r	.	.
8E#	.	.	.	.	.	8b#	.	.
=99||	=99||	=99||	=99||	=99||	=99||	=99||	=99||	=99||
*k[f#c#g#d#a#e#b#]	*	*k[f#c#g#d#a#e#b#]	*	*k[f#c#g#d#a#e#b#]	*	*k[f#c#g#d#a#e#b#]	*	*
*a#:	*	*a#:	*	*a#:	*	*a#:	*	*
4E#	f	1A#	f	4r	.	4cc#	.	i64
4r	.	.	.	8r	.	4r	.	.
.	.	.	.	8e#	.	.	.	.
4r	.	.	.	4e#	.	4dd#	.	.
8r	.	.	.	4r	.	8r	.	.
8E#	.	.	.	.	.	8cc#	.	.
=100	=100	=100	=100	=100	=100	=100	=100	=100
4G##X	sf	1B#	f	4r	.	4b#	.	V65
4r	.	.	.	8r	.	8r	.	.
.	.	.	.	8e#	.	8a#	.	.
4r	.	.	.	4e#	.	4b#	.	V43
8r	.	.	.	4r	.	8r	.	.
8E#	.	.	.	.	.	8g##X	.	V7
=101	=101	=101	=101	=101	=101	=101	=101	=101
4A#	.	4c#	.	4r	.	4a#	.	i
4r	.	4r	.	8r	.	8r	.	.
.	.	.	.	8cc#	.	8aa#	.	.
4r	.	4c#	.	4cc#	.	4aa#	.	i6
8r	.	8r	.	4r	.	4r	.	.
8AA#	.	8B#	.	.	.	.	.	.
=102	=102	=102	=102	=102	=102	=102	=102	=102
4BB#	.	4A#	.	1d##X	sf	4r	.	V/V
4r	.	8r	.	.	.	8r	.	.
.	.	8G#	.	.	.	8ccc#	.	.
4r	.	4A#	.	.	.	4ccc#	.	.
8r	.	8r	.	.	.	4r	.	.
8BB#	.	8F##X	.	.	.	.	.	.
=103	=103	=103	=103	=103	=103	=103	=103	=103
4BB#	.	4G#	.	1e#	f	4r	.	v64
4r	.	4r	.	.	.	8r	.	.
.	.	.	.	.	.	8bb#	.	.
4r	.	4A#	.	.	.	4bb#	.	.
8r	.	8r	.	.	.	4r	.	.
8BB#	.	8G#	.	.	.	.	.	.
=104	=104	=104	=104	=104	=104	=104	=104	=104
4D##X	.	4F##X	.	1f##X	f	4r	.	V65/V
4r	.	8r	.	.	.	8r	.	.
.	.	8E#	.	.	.	8bb#	.	.
4r	.	4F##	.	.	.	4bb#	.	.
8r	.	8r	.	.	.	4r	.	.
8BB#	.	8D##X	.	.	.	.	.	.
=105	=105	=105	=105	=105	=105	=105	=105	=105
4EE#	.	4B#	.	1g#	f	4r	.	v
4r	.	4r	.	.	.	8r	.	.
.	.	.	.	.	.	8bb#	.	.
4f#	.	2r	.	.	.	4ee#	.	.
8r	.	.	.	.	.	4r	.	.
8e#	.	.	.	.	.	.	.	.
=106	=106	=106	=106	=106	=106	=106	=106	=106
4d#	.	4f#	.	1g##X	f	4r	.	V43(+9)
8r	.	8r	.	.	.	8r	.	.
8c#	.	8e#	.	.	.	8ee#	.	.
4d#	.	4f#	.	.	.	4ee#	.	.
8r	.	8r	.	.	.	4r	.	.
8B#	.	8d#	.	.	.	.	.	.
=107	=107	=107	=107	=107	=107	=107	=107	=107
4c#	.	4e#	.	1a#	f	4r	.	i6
4r	.	4r	.	.	.	8r	.	.
.	.	.	.	.	.	8ee#	.	.
4F#	.	4d#	.	.	.	4ee#	.	.
8r	.	8r	.	.	.	4r	.	.
8E#	.	8c#	.	.	.	.	.	.
=108	=108	=108	=108	=108	=108	=108	=108	=108
!	!	!	!LO:DY:a	!	!	!	!	!
4D#	.	4B#	f	1e# 1b#	.	4r	.	V2
8r	.	8r	.	.	.	8r	.	.
8C#	.	8A#	.	.	.	8ee#	.	.
4D#	.	4B#	.	.	.	4ee#	.	.
8r	.	8r	.	.	.	4r	.	.
8BB#	.	8G##X	.	.	.	.	.	.
=109	=109	=109	=109	=109	=109	=109	=109	=109
4AA#	.	4A#	.	2e# 2cc#	.	4ee#	.	i
4r	.	8r	.	.	.	8r	.	.
.	.	8A#	.	.	.	8aa#	.	.
2r	.	4A#	.	4.e# 4.cc##X	.	4bb	.	iii.V7(+9)
.	.	4r	.	.	.	8r	.	.
.	.	.	.	8a#	.	8aa#	.	.
=110	=110	=110	=110	=110	=110	=110	=110	=110
!	!	!	!LO:DY:a	!	!	!	!	!
1CC##X	f	4r	sf	[2.A# [2.e#	.	4gg#	.	V65
.	.	8r	.	.	.	8r	.	.
.	.	8a#	.	.	.	8ff#	.	.
.	.	4a#	.	.	.	4gg#	.	.
.	.	4r	.	8A#L] 8e#]	.	8r	.	.
.	.	.	.	8ee#J	.	8ee#	.	.
=111	=111	=111	=111	=111	=111	=111	=111	=111
!	!	!	!LO:DY:a	!	!	!	!	!
1DD#	f	4r	f	[2.A# [2.f#	.	4ff#	.	i
.	.	8r	.	.	.	4r	.	.
.	.	8a#	.	.	.	.	.	.
.	.	4a#	.	.	.	4gg#	.	.
.	.	4r	.	8A#L] 8f#]	.	8r	.	.
.	.	.	.	8ff#J	.	8ff#	.	.
=112	=112	=112	=112	=112	=112	=112	=112	=112
!	!	!	!LO:DY:a	!	!	!	!	!
1EE#	f	4r	f	[2.A# [2.g#	.	4ee#	.	V43
.	.	8r	.	.	.	8r	.	.
.	.	8a#	.	.	.	8dd#	.	.
.	.	4a#	.	.	.	4ee#	.	.
.	.	4r	.	8A#L] 8g#]	.	8r	.	.
.	.	.	.	8gg#J	.	8cc##X	.	.
=113	=113	=113	=113	=113	=113	=113	=113	=113
1FF#	f	4r	.	4F# 4d# 4a#	.	4dd#	.	i6
.	.	8r	.	4r	.	8r	.	.
.	.	8a#	.	.	.	8ddd#	.	.
.	.	4a#	.	4ff#	.	4ddd#	.	.
.	.	8r	.	8r	.	4r	.	.
.	.	8C#	.	8ee#	.	.	.	.
=114	=114	=114	=114	=114	=114	=114	=114	=114
!	!LO:DY:a	!	!	!	!	!	!	!
1GG##X	f sf	[2.BB#	.	4dd#	.	4r	.	V65/V
.	.	.	.	8r	.	8r	.	.
.	.	.	.	8cc#	.	8ddd#	.	.
.	.	.	.	4dd#	.	4ddd#	.	.
.	.	8BB#L]	.	8r	.	4r	.	.
.	.	8B#J	.	8e# 8b#	.	.	.	.
=115	=115	=115	=115	=115	=115	=115	=115	=115
!	!LO:DY:a	!	!	!	!	!	!	!
1AA#	f sf	[2.C#	.	4e# 4cc#	.	4r	.	v
.	.	.	.	8r	.	8r	.	.
.	.	.	.	8e#	.	8ccc#	.	.
.	.	.	.	4f#	.	4ddd#	.	.
.	.	8C#L]	.	8r	.	8r	.	.
.	.	8c#J	.	8e#	.	8ccc#	.	.
=116	=116	=116	=116	=116	=116	=116	=116	=116
!	!LO:DY:a	!	!	!	!	!	!	!
1BB#	f sf	[2.D#	.	4e#	.	4bb#	.	vii.V43
.	.	.	.	8r	.	8r	.	.
.	.	.	.	8e#	.	8aa#	.	.
.	.	.	.	4e#	.	4bb#	.	.
.	.	8D#L]	.	8r	.	8r	.	.
.	.	8d#J	.	8e#	.	8gg##X	.	.
=117	=117	=117	=117	=117	=117	=117	=117	=117
4C#	.	4e#	.	4A#	.	4aa#	.	i
(8AA#L	.	(8A#L	.	(8A#L	.	(8A#L	.	.
8C#J	.	8c#J	.	8c#J	.	8c#J	.	.
4E#')	.	4e#')	.	4e#')	.	4e#')	.	.
(8F#L	.	(8f#L	.	(8f#L	.	(8f#L	.	.
8AA#J	.	8A#J	.	8A#J	.	8A#J	.	.
=118	=118	=118	=118	=118	=118	=118	=118	=118
4GG##X')	.	4G##X')	.	4G##X')	.	4G##X')	.	V6
4r	.	4r	.	4r	.	4r	.	.
2r	.	2r	.	2r	.	2r	.	.
=119	=119	=119	=119	=119	=119	=119	=119	=119
4r	.	4r	.	4r	.	4r	.	.
(8AA#L	.	(8A#L	.	(8A#L	.	(8A#L	.	i
8C#J	.	8c#J	.	8c#J	.	8c#J	.	.
4E#')	.	4e#')	.	4e#')	.	4e#')	.	.
(8F#L	.	(8f#L	.	(8f#L	.	(8f#L	.	.
8AA#J	.	8A#J	.	8A#J	.	8A#J	.	.
=120	=120	=120	=120	=120	=120	=120	=120	=120
4BB#')	.	4B#')	.	4B#')	.	4B#')	.	II.V65
(8BB#L	.	(8B#L	.	(8B#L	.	(8B#L	.	.
8D#J	.	8d#J	.	8d#J	.	8d#J	.	.
4F#')	.	4f#')	.	4f#')	.	4f#')	.	.
(8G#L	.	(8g#L	.	(8g#L	.	(8g#L	.	.
8BB#J	.	8B#J	.	8B#J	.	8B#J	.	.
=121	=121	=121	=121	=121	=121	=121	=121	=121
4C#')	.	4c#')	.	4c#')	.	4c#')	.	I
(8C#L	.	(8C#L	.	(8c#L	.	(8c#L	.	.
8E#J	.	8E#J	.	8e#J	.	8e#J	.	.
4G#')	.	4G#')	.	4g#')	.	4g#')	.	.
(8A#L	.	(8A#L	.	(8a#L	.	(8a#L	.	.
8C#J	.	8C#J	.	8c#J	.	8c#J	.	.
=122	=122	=122	=122	=122	=122	=122	=122	=122
4BB#')	.	4BB#')	.	4B#')	.	4B#')	.	V6
4r	.	4r	.	4r	.	4r	.	.
2r	.	2r	.	2r	.	2r	.	.
=123	=123	=123	=123	=123	=123	=123	=123	=123
4r	.	4r	.	4r	.	4r	.	.
(8BB#L	.	(8BB#L	.	(8B#L	.	(8B#L	.	V65
8D#J	.	8D#J	.	8d#J	.	8d#J	.	.
4F#')	.	4F#')	.	4f#')	.	4f#')	.	.
(8G#L	.	(8G#L	.	(8g#L	.	(8g#L	.	.
8BB#J	.	8BB#J	.	8ff#J)	.	8B#J	.	.
=124	=124	=124	=124	=124	=124	=124	=124	=124
4C#)	p	4C#)	p	(8ee#L	p	4c#)	p	I
.	.	.	.	8ff#	.	.	.	.
4r	.	4r	.	8ee#	.	(8c#L	.	.
.	.	.	.	8dd#J	.	8e#J	.	.
4r	.	4r	.	8cc#L	.	4a#')	.	vi43
.	.	.	.	8b#	.	.	.	.
8e#L	.	8g#L	.	8cc#	.	4r	.	.
8e#J	.	8g#J	.	8a#J)	.	.	.	.
=125	=125	=125	=125	=125	=125	=125	=125	=125
4d#	.	4f#	.	(8ff#L	.	4r	.	ii
.	.	.	.	8gg#	.	.	.	.
4r	.	4r	.	8ff#	.	(8d#L	.	.
.	.	.	.	8ee#J	.	8f#J	.	.
4r	.	4r	.	8dd#L	.	4b#')	.	V2(+9)
.	.	.	.	8cc#	.	.	.	.
8f#L	.	8a#L	.	8dd#	.	4r	.	.
8f#J	.	8a#J	.	8b#J)	.	.	.	.
=126	=126	=126	=126	=126	=126	=126	=126	=126
4e#	.	4g#	.	(8gg#L	.	4r	.	I6
.	.	.	.	8aa#	.	.	.	.
4r	.	4r	.	8gg#	.	(8e#L	.	.
.	.	.	.	8ff#J	.	8g#J	.	.
4r	.	4r	.	8ee#L	.	4cc##X')	.	#viio6/ii
.	.	.	.	8dd#	.	.	.	.
8e#L	.	8g#L	.	8ee#	.	4r	.	.
8e#J	.	8g#J	.	8cc##XJ)	.	.	.	.
=127	=127	=127	=127	=127	=127	=127	=127	=127
4d#	.	4f#	.	(8aa#L	.	4r	.	ii
.	.	.	.	8bb	.	.	.	.
4r	.	4r	.	8aa#	.	(8f#L	.	.
.	.	.	.	8gg#J	.	8a#J	.	.
4r	.	4r	.	8ff#L	.	4dd#')	.	.
.	.	.	.	8ee#	.	.	.	.
*clefF4	*	*	*	*	*	*	*	*
8D#L	.	8f#L	.	8ff#	.	4r	.	.
8D#J	.	8f#J	.	8dd#J)	.	.	.	.
=128	=128	=128	=128	=128	=128	=128	=128	=128
!	!	!	!	!LO:TX:b:i:t=non ligato	!	!	!	!
4AA#	.	4C##X	.	8gg#L	.	4r	.	V7/ii
.	.	.	.	8ff#	.	.	.	.
4r	.	4r	.	8ee#	.	(8c##XL	.	.
.	.	.	.	8dd#J	.	8a#J	.	.
4r	.	4r	.	8cc##XL	.	4ee#')	.	.
.	.	.	.	8b	.	.	.	.
8AA#L	.	8e#L	.	8a#	.	4r	.	.
8AA#J	.	8e#J	.	8g#J	.	.	.	.
=129	=129	=129	=129	=129	=129	=129	=129	=129
4DD#	.	4D#	.	8f#L	.	4r	.	ii
.	.	.	.	8e#	.	.	.	.
4r	.	4r	.	8d#	.	(8d#L	.	.
.	.	.	.	8c#J	.	8a#J	.	.
4r	.	4r	.	8BL	.	4ff#')	.	.
.	.	.	.	8A#	.	.	.	.
*clefC4	*	*	*	*	*	*	*	*
8d#L	.	8f#L	.	8G#	.	4r	.	.
8d#J	.	8f#J	.	8F#J	.	.	.	.
=130	=130	=130	=130	=130	=130	=130	=130	=130
4B#	.	4d#	.	4r	.	(8dd#L	.	V6
.	.	.	.	.	.	8ee#	.	.
4r	.	4r	.	(8B#XL	.	8dd#	.	.
.	.	.	.	8d#J	.	8cc#J	.	.
4r	.	4r	.	4g#')	.	8b#L	.	V43
.	.	.	.	.	.	8a#	.	.
8d#L	.	8f#L	.	4r	.	8b#	.	.
8d#J	.	8f#J	.	.	.	8g#J)	.	.
=131	=131	=131	=131	=131	=131	=131	=131	=131
4c#	.	4e#	.	4r	.	(8ee#L	.	I
.	.	.	.	.	.	8ff#	.	.
4r	.	4r	.	(8c#L	.	8ee#	.	.
.	.	.	.	8e#J	.	8dd#J	.	.
4r	.	4r	.	4a#')	.	8cc#L	.	vi43
.	.	.	.	.	.	8b#	.	.
8e#L	.	8g#L	.	4r	.	8cc#	.	.
8e#J	.	8g#J	.	.	.	8a#J)	.	.
=132	=132	=132	=132	=132	=132	=132	=132	=132
4d#	.	4f#	.	4r	.	(8ff#L	.	ii
.	.	.	.	.	.	8gg#	.	.
4r	.	4r	.	(8d#L	.	8ff#	.	.
.	.	.	.	8f#J	.	8ee#J	.	.
4r	.	4r	.	4b#')	.	8dd#L	.	V7
.	.	.	.	.	.	8b#	.	.
*clefF4	*	*	*	*	*	*	*	*
8G#L	.	8F#L	.	4r	.	8cc#	.	.
8G#J	.	8F#J	.	.	.	8b#J)	.	.
=133	=133	=133	=133	=133	=133	=133	=133	=133
4C#	.	4e#	.	4r	.	(8gg#L	.	I
.	.	.	.	.	.	8aa#	.	.
4r	.	4r	.	(8e#L	.	8gg#	.	.
.	.	.	.	8g#J	.	8ff#J	.	.
4r	.	4r	.	4cc#')	.	8ee#L	.	.
.	.	.	.	.	.	8dd#	.	.
8C#L	.	8E#L	.	4r	.	8ee#	.	.
8C#J	.	8E#J	.	.	.	8cc#J)	.	.
=134	=134	=134	=134	=134	=134	=134	=134	=134
!	!	!	!	!	!	!LO:TX:b:i:t=non ligato	!	!
4GG#	.	4d#	.	4r	.	8ff#L	.	V7
.	.	.	.	.	.	8ee#	.	.
4r	.	4r	.	(8B#L	.	8dd#	.	.
.	.	.	.	8g#J	.	8cc#J	.	.
4r	.	4r	.	4dd#')	.	8b#L	.	.
.	.	.	.	.	.	8a#	.	.
8GG#L	.	8D#L	.	4r	.	8g#	.	.
8GG#J	.	8D#J	.	.	.	8f#J	.	.
=135	=135	=135	=135	=135	=135	=135	=135	=135
4CC#	.	4E#	.	4r	.	8e#L	.	I
.	.	.	.	.	.	8d#	.	.
4r	.	4r	.	(8c#L	.	8c#	.	.
.	.	.	.	8g#J	.	8B#J	.	.
4r	.	4r	.	4ee#')	.	8A#L	.	.
.	.	.	.	.	.	8G#	.	.
*clefC4	*	*	*	*	*	*	*	*
8c#L	.	8G#L 8e#	.	4r	.	8F#	.	.
8c#J	.	8G#J 8e#	.	.	.	8e#J	.	.
=136	=136	=136	=136	=136	=136	=136	=136	=136
!LO:TX:b:i:t=cresc.	!	!LO:TX:b:i:t=cresc.	!	!LO:TX:b:i:t=cresc.	!	!	!	!
4A##X	.	4e#	.	(8cc##XL	.	4r	.	i.#viio
.	.	.	.	8dd#	.	.	.	.
!	!	!	!	!	!	!LO:TX:b:i:t=cresc.	!	!
4r	.	4r	.	8cc##	.	(8A##XL	.	.
.	.	.	.	8b#J)	.	8f##XJ	.	.
4r	.	4r	.	(8b#L	.	4cc##X')	.	.
.	.	.	.	8a##X	.	.	.	.
*clefF4	*	*	*	*	*	*	*	*
8F##XL	.	8e#L	.	8cc##	.	4r	.	.
8F##J	.	8e#J	.	8a##J)	.	.	.	.
=137	=137	=137	=137	=137	=137	=137	=137	=137
4BB#	.	4d#	.	(8dd#L	.	4r	.	i
.	.	.	.	8ee#	.	.	.	.
4r	.	4r	.	8dd#	.	(8B#L	.	.
.	.	.	.	8cc##XJ)	.	8f##XJ	.	.
4r	.	4r	.	(8cc##L	.	4dd#')	.	.
.	.	.	.	8b#	.	.	.	.
8BB#L	.	8d#L	.	8dd#	.	4r	.	.
8BB#J	.	8d#J	.	8b#J)	.	.	.	.
=138	=138	=138	=138	=138	=138	=138	=138	=138
4FF##X	.	4c##X	.	(8ee#L	.	4r	.	V7
.	.	.	.	8ff##X	.	.	.	.
4r	.	4r	.	8ee#	.	(8c##XL	.	.
.	.	.	.	8dd#J)	.	8f##XJ	.	.
4r	.	4r	.	(8dd#L	.	4ee#')	.	.
.	.	.	.	8cc##X	.	.	.	.
8FF##L	.	8A##XL	.	8ee#	.	4r	.	.
8FF##J	.	8A##J	.	8cc##J)	.	.	.	.
=139	=139	=139	=139	=139	=139	=139	=139	=139
!	!	!	!	!LO:TX:b:i:t=non ligato	!	!	!	!
4DD#	.	4B#	.	8ff##XL	.	4r	.	i6
.	.	.	.	8ee#	.	.	.	.
4r	.	4r	.	8dd#	.	(8d#L	.	.
.	.	.	.	8cc##XJ	.	8b#J	.	.
4r	.	4r	.	8b#L	.	4ff##X')	.	.
.	.	.	.	8a#	.	.	.	.
8FF##XL	.	8B#L 8d#	.	8g#	.	4r	.	.
8FF##J	.	8B#J 8d#	.	8f##XJ	.	.	.	.
=140||	=140||	=140||	=140||	=140||	=140||	=140||	=140||	=140||
*k[]	*	*k[]	*	*k[]	*	*k[]	*	*
*b#:	*	*b#:	*	*b#:	*	*b#:	*	*
4FF##X	.	4A##X	.	8e#L	.	4r	.	V[V7
.	.	.	.	8d#	.	.	.	.
4r	.	4r	.	8c##X	.	(8f##XL	.	.
.	.	.	.	8B#J	.	8cc##J	.	.
4r	.	4r	.	8A##XL	.	4aa##X')	.	.
.	.	.	.	8G#	.	.	.	.
8FF##L	.	8c##L	.	8F##X	.	4r	.	.
8FF##J	.	8c##J	.	8e#J	.	.	.	.
=141	=141	=141	=141	=141	=141	=141	=141	=141
4FF##	.	4B#	.	8d#L	.	4r	.	i
.	.	.	.	8e#	.	.	.	.
4r	.	4r	.	8f##	.	(8f##L	.	.
.	.	.	.	8g#J	.	8dd#J	.	.
4r	.	4r	.	8a#L	.	4bb#')	.	.
.	.	.	.	8b#	.	.	.	.
!	!	!LO:TX:b:i:t=non ligato	!	!	!	!	!	!
8FF##L	.	8B#L	.	8cc##	.	4r	.	.
8FF##J	.	8B#J	.	8dd#J	.	.	.	.
=142	=142	=142	=142	=142	=142	=142	=142	=142
4FF##	.	8d#L	.	8ff##L	.	4r	.	.
.	.	8c##	.	8ee#	.	.	.	.
4r	.	8B#	.	8dd#	.	(8f##L	.	.
.	.	8A#J	.	8cc##J	.	8dd#J	.	.
4r	.	8G#L	.	8b#L	.	4bb#')	.	.
.	.	8F##	.	8a#	.	.	.	.
8FF##L	.	8E#	.	8g#	.	4r	.	.
8FF##J	.	8D#J	.	8f##J	.	.	.	.
=143	=143	=143	=143	=143	=143	=143	=143	=143
4FF##	.	8C##L	.	8e#L	.	4r	.	V7
.	.	8D#	.	8d#	.	.	.	.
4r	.	8E#	.	8c##	.	(8f##L	.	.
.	.	8F##J	.	8B#J	.	8ee#J	.	.
4r	.	8F##L	.	8A##XL	.	4ccc##')	.	.
.	.	8A##X	.	8G#	.	.	.	.
8FF##L	.	8B#	.	8F##	.	4r	.	.
8FF##J	.	8c##J	.	8e#J	.	.	.	.
=144	=144	=144	=144	=144	=144	=144	=144	=144
!	!	!	!	!	!	!LO:TX:b:i:t=non ligato	!	!
4FF##	.	8B#L	.	8d#L	.	8ddd#L	.	i
.	.	8c##	.	8e#	.	8ccc##	.	.
4r	.	8d#	.	8f##	.	8bb#	.	.
.	.	8e#J	.	8g#J	.	8aa#J	.	.
4r	.	8f##L	.	8a#L	.	8gg#L	.	.
.	.	8g#	.	8b#	.	8ff##	.	.
8FF##L	.	8a#	.	8cc##	.	8ee#	.	.
8FF##J	.	8b#J	.	8dd#J	.	8dd#J	.	.
=145	=145	=145	=145	=145	=145	=145	=145	=145
!LO:TX:b:i:t=dim.	!	!LO:TX:b:i:t=dim.	!	!	!	!LO:TX:b:i:t=dim.	!	!
4FF##	.	8D#L	.	4r	.	(8ff##L	.	.
.	.	8E#	.	.	.	8gg#	.	.
!	!	!	!	!LO:TX:b:i:t=dim.	!	!	!	!
4r	.	8F##	.	(8f##L	.	8ff##	.	.
.	.	8G#J	.	8dd#J	.	8ee#J	.	.
4r	.	8A#L	.	4bb#')	.	8ff##L	.	.
.	.	8B#	.	.	.	8dd#	.	.
8FF##L	.	8c##	.	4r	.	8ee#	.	.
8FF##J	.	8d#J	.	.	.	8dd#J)	.	.
=146	=146	=146	=146	=146	=146	=146	=146	=146
4FF##	.	8C##L	.	4r	.	(8ee#L	.	V7
.	.	8D#	.	.	.	8ff##	.	.
4r	.	8E#	.	(8f##L	.	8ee#	.	.
.	.	8F##J	.	8ee#J	.	8dd#J	.	.
4r	.	(8F##L	.	4ccc##')	.	8ee#L	.	.
.	.	8E#	.	.	.	8cc##	.	.
8FF##L	.	8F##	.	4r	.	8dd#	.	.
8FF##J	.	8E#J)	.	.	.	8cc##J)	.	.
=147	=147	=147	=147	=147	=147	=147	=147	=147
4FF##	.	8BB#L	.	4r	.	(8dd#L	.	i
.	.	8C##	.	.	.	8ee#	.	.
4r	.	8D#	.	(8f##L	.	8dd#	.	.
.	.	8E#J	.	8dd#J	.	8cc##J	.	.
4r	.	8F##L	.	4bb#')	.	8dd#L	.	.
.	.	8G#	.	.	.	8b#	.	.
8FF##L	.	8A#	.	4r	]]	8cc##	.	.
8FF##J	]]	8B#J	]]	.	.	8b#J)	]]	.
=148	=148	=148	=148	=148	=148	=148	=148	=148
!	!	!	!LO:DY:a	!	!	!LO:TX:a:i:t=Ritmo di tre battute	!	!
(2FF##	p < <	(8C##L	p p < <	(8A##XL	< <	[1f##	p < <	V2
.	.	8BB#	.	8B#	.	.	.	.
.	.	8C##	.	8A##	.	.	.	.
.	.	8BB#J	.	8B#J	.	.	.	.
[2EE#)	.	8C##L	.	8A##L	.	.	.	.
.	.	8BB#	.	8B#	.	.	.	.
.	.	8C##	.	8A##	.	.	.	.
.	.	8BB#J	.	8B#J	.	.	.	.
=149	=149	=149	=149	=149	=149	=149	=149	=149
1EE#_	[[	8C##L	.	8A##XL	.	(8f##L]	.	.
.	.	8BB#	.	8B#	.	8g#	.	.
.	.	8C##	.	8A##	.	8f##	.	.
.	.	8BB#J	.	8B#J	.	8g#J	.	.
.	.	8C##L	.	8A##L	.	8f##L	.	.
.	.	8BB#	.	8B#	.	8g#	.	.
.	.	8C##	.	8A##	.	8f##	.	.
.	.	8BB#J	[[	8B#J	[[	8g#J	[[	.
=150	=150	=150	=150	=150	=150	=150	=150	=150
1EE#]	>]	8C##L	>	8A##XL	>	8f##L	>	.
.	.	8BB#	.	8B#	.	8g#	.	.
.	.	8C##	.	8A##	.	8f##	.	.
.	.	8BB#J	.	8B#J	.	8g#J	.	.
.	.	8C##L	.	8A##L	.	8f##L	.	.
.	.	8BB#	.	8B#	.	8g#	.	.
.	.	8C##	.	8A##	.	8f##	.	.
.	.	8D#J)	]]	8B#J)	]]	8g#J)	]]	.
=151	=151	=151	=151	=151	=151	=151	=151	=151
(2FF##	<	(8C##L	<	(8A##XL	<	2f##	<	V7
.	.	8BB#	.	8B#	.	.	.	.
.	.	8C##	.	8A##	.	.	.	.
.	.	8BB#J	.	8B#J	.	.	.	.
[2EE#)	.	8C##L	.	8A##L	.	[2ff##	.	V2
.	.	8BB#	.	8B#	.	.	.	.
.	.	8C##	.	8A##	.	.	.	.
.	.	8BB#J	.	8B#J	.	.	.	.
=152	=152	=152	=152	=152	=152	=152	=152	=152
1EE#_	[[	8C##L	.	8A##XL	.	(8ff##L]	.	.
.	.	8BB#	.	8B#	.	8gg#	.	.
.	.	8C##	.	8A##	.	8ff##	.	.
.	.	8BB#J	.	8B#J	.	8gg#J	.	.
.	.	8C##L	.	8A##L	.	8ff##L	.	.
.	.	8BB#	.	8B#	.	8gg#	.	.
.	.	8C##	.	8A##	.	8ff##	.	.
.	.	8BB#J	[[	8B#J	[[	8gg#J	[[	.
=153	=153	=153	=153	=153	=153	=153	=153	=153
1EE#]	>]	8C##L	>	8A##XL	>	8ff##L	>	.
.	.	8BB#	.	8B#	.	8gg#	.	.
.	.	8C##	.	8A##	.	8ff##	.	.
.	.	8BB#J	.	8B#J	.	8gg#J	.	.
.	.	8C##L	.	8A##L	.	8ff##L	.	.
.	.	8BB#	.	8B#	.	8gg#	.	.
.	.	8C##	.	8A##	.	8ff##	.	.
.	.	8D#J)	]]	8B#J)	]]	8gg#J)	]]	.
=154	=154	=154	=154	=154	=154	=154	=154	=154
(2FF##	p	(8C##L	p	(8A##XL	p	(8ff##L	p	V7
.	.	8BB#	.	8B#	.	8gg#	.	.
.	.	8C##	.	8A##	.	8ff##	.	.
.	.	8BB#J	.	8B#J	.	8gg#J	.	.
2EE#	.	8C##L	.	8A##L	.	8ff##L	.	V2
.	.	8BB#	.	8B#	.	8gg#	.	.
.	.	8C##	.	8A##	.	8ff##	.	.
.	.	8D#J	.	8B#J	.	8gg#J	.	.
=155	=155	=155	=155	=155	=155	=155	=155	=155
2FF##	pp	8C##L	pp	8A##XL	pp	8ff##L	pp	V7
.	.	8BB#	.	8B#	.	8gg#	.	.
.	.	8C##	.	8A##	.	8ff##	.	.
.	.	8BB#J	.	8B#J	.	8gg#J	.	.
2EE#	.	8C##L	.	8A##L	.	8ff##L	.	V2
.	.	8BB#	.	8B#	.	8gg#	.	.
.	.	8C##	.	8A##	.	8ff##	.	.
.	.	8D#J	.	8B#J	.	8gg#J	.	.
=156	=156	=156	=156	=156	=156	=156	=156	=156
2FF##	.	8C##L	.	8A##XL	.	8ff##L	.	V7
.	.	8BB#	.	8B#	.	8gg#	.	.
.	.	8C##	.	8A##	.	8ff##	.	.
.	.	8BB#J	.	8B#J	.	8gg#J	.	.
2EE#)	.	8C##L	.	8A##L	.	8ff##L	.	V2
.	.	8BB#	.	8B#	.	8gg#	.	.
.	.	8C##	.	8A##	.	8ff##	.	.
.	.	8D#J)	.	8B#J)	.	8gg#J)	.	.
=157	=157	=157	=157	=157	=157	=157	=157	=157
!LO:TX:b:i:t=cresc.	!	!LO:TX:b:i:t=cresc.	!	!LO:TX:b:i:t=cresc.	!	!LO:TX:b:i:t=cresc.	!	!
(4FF##	.	(8C##L	.	(8A##XL	.	(8ff##L	.	V7
.	.	8BB#	.	8B#	.	8gg#	.	.
4EE#	.	8C##	.	8A##	.	8ff##	.	V2
.	.	8D#J)	.	8B#J	.	8gg#J	.	.
4FF##	.	(8C##L	.	8A##L	.	8ff##L	.	V7
.	.	8BB#	.	8B#	.	8gg#	.	.
4EE#)	.	8C##	.	8A##	.	8ff##	.	V2
.	.	8D#J)	.	8B#J	.	8gg#J	.	.
=158	=158	=158	=158	=158	=158	=158	=158	=158
(4FF##	.	(8C##L	.	8A##XL	.	8ff##L	.	V7
.	.	8BB#	.	8B#	.	8gg#	.	.
4EE#	.	8C##	.	8A##	.	8ff##	.	V2
.	.	8D#J)	.	8B#J	.	8gg#J	.	.
4FF##	.	(8C##L	.	8A##L	.	8ff##L	.	V7
.	.	8BB#	.	8B#	.	8gg#	.	.
4EE#)	.	8C##	.	8A##	.	8ff##	.	V2
.	.	8D#J)	.	8B#J	.	8gg#J	.	.
=159	=159	=159	=159	=159	=159	=159	=159	=159
(4FF##	.	(8C##L	.	8A##XL	.	8ff##L	.	V7
.	.	8BB#	.	8B#	.	8gg#	.	.
4EE#	.	8C##	.	8A##	.	8ff##	.	V2
.	.	8D#J)	.	8B#J	.	8gg#J	.	.
4FF##	.	(8C##L	.	8A##L	.	8ff##L	.	V7
.	.	8BB#	.	8B#	.	8gg#	.	.
4FF##)	.	8C##	.	8A##	.	8ff##	.	V2
.	.	8C##J)	.	8A##J)	.	8ff##J)	.	.
=160	=160	=160	=160	=160	=160	=160	=160	=160
!	!LO:DY:a	!	!	!	!	!	!	!
4BBB#'	ff ff	4BB#'	.	4B#'	ff	(8ff##L	ff	i\\
.	.	.	.	.	.	8gg#	.	.
4r	.	(8D#L	.	(8d#L	.	8ff##	.	.
.	.	8F##J	.	8f##J	.	8gg#J	.	.
2r	.	4B#')	.	4b#')	.	8ff##L	.	.
.	.	.	.	.	.	8gg#	.	.
.	.	(8d#L	.	(8dd#L	.	8ff##	.	.
.	.	8f##J	.	8ff##J	.	8gg#J	.	.
=161	=161	=161	=161	=161	=161	=161	=161	=161
4r	.	4b#')	.	4bb#')	.	8ff##L	.	.
.	.	.	.	.	.	8gg#	.	.
(8BBB#L	.	8r	.	8r	.	8ff##	.	.
8DD#J	.	8B#	.	8F## 8d#	.	8gg#J	.	.
4FF##')	.	4B#	.	4F## 4d#	.	8ff##L	.	.
.	.	.	.	.	.	8gg#	.	.
(8GG#L	.	8r	.	8r	.	8ff##	.	.
8BBB#J	.	8B#	.	8F## 8d#	.	8gg#J	.	.
=162	=162	=162	=162	=162	=162	=162	=162	=162
4AAA##X')	.	4c##	.	4F## 4e#	.	8ff##L	.	V65
.	.	.	.	.	.	8gg#	.	.
4r	.	(8AA##XL	.	(8A##XL	.	8ff##	.	.
.	.	8C##J	.	8c##J	.	8gg#J	.	.
2r	.	4E#')	.	4e#')	.	8ff##L	.	.
.	.	.	.	.	.	8gg#	.	.
.	.	(8A##XL	.	(8a##XL	.	8ff##	.	.
.	.	8c##J	.	8cc##J	.	8gg#J	.	.
=163	=163	=163	=163	=163	=163	=163	=163	=163
4r	.	4e#')	.	4ee#')	.	8ff##L	.	.
.	.	.	.	.	.	8gg#	.	.
(8AAA##XL	.	8r	.	8r	.	8ff##	.	.
8CC##J	.	8c##	.	8F## 8e#	.	8gg#J	.	.
4FF##')	.	4c##	.	4F## 4e#	.	8ff##L	.	.
.	.	.	.	.	.	8gg#	.	.
(8GG#L	.	8r	.	8r	.	8ff##	.	.
8AAA##J	.	8c##	.	8F## 8e#	.	8gg#J)	.	.
=164	=164	=164	=164	=164	=164	=164	=164	=164
4BBB#')	.	4B#'	.	4F## 4d#	.	4ff##	.	i
(8DD#L	.	(8D#L	.	8r	.	4r	.	.
8FF##J	.	8F##J	.	8F## 8d#	.	.	.	.
4BB#')	.	4B#')	.	4F## 4d#	.	2r	.	.
(8D#L	.	(8d#L	.	8r	.	.	.	.
8F##J	.	8f##J	.	8F## 8d#	.	.	.	.
=165	=165	=165	=165	=165	=165	=165	=165	=165
4B#')	.	4b#')	.	4F## 4d#	.	4r	.	.
4r	.	4r	.	8r	.	(8b#L	.	.
.	.	.	.	8F## 8d#	.	8dd#J	.	.
2r	.	2r	.	4F## 4d#	.	4ff##')	.	.
.	.	.	.	8r	.	(8gg#L	.	.
.	.	.	.	8F## 8d#	.	8b#J	.	.
=166	=166	=166	=166	=166	=166	=166	=166	=166
4FF##	.	4F##	.	4F## 4e#	.	4a##X')	.	V7
(8AA##XL	.	(8A##XL	.	8r	.	4r	.	.
8C##J	.	8c##J	.	8F## 8e#	.	.	.	.
4F##')	.	4f##')	.	4F## 4e#	.	2r	.	.
*clefC4	*	*	*	*	*	*	*	*
(8A##XL	.	(8a##XL	.	8r	.	.	.	.
8c##J	.	8cc##J	.	8F## 8e#	.	.	.	.
=167	=167	=167	=167	=167	=167	=167	=167	=167
4e#')	.	4ee#')	.	4F## 4c##	.	4r	.	.
8r	.	8r	.	8r	.	(8a##XL	.	.
*clefF4	*	*	*	*	*	*	*	*
8FF##	.	8A##X	.	8F## 8c##	.	8cc##J	.	.
4FF##	.	4A##	.	4F## 4c##	.	4ff##')	.	.
8r	.	8r	.	8r	.	(8gg#L	.	.
8FF##	.	8c##	.	8F## 8e#	.	8a##J	.	.
=168	=168	=168	=168	=168	=168	=168	=168	=168
4FF##	.	4B#	.	4F## 4d#	.	4b#')	.	i64
8r	.	8r	.	8r	.	4r	.	.
8FF##	.	8B#	.	8F## 8d#	.	.	.	.
4FF##	.	4B#	.	4F## 4d#	.	4b#	.	i64
8r	.	8r	.	8r	.	8r	.	.
8EE#	.	8F##	.	8A##X	.	8cc##	.	.
=169	=169	=169	=169	=169	=169	=169	=169	=169
4DD#	.	4F##	.	4B#	.	4dd#	.	i6
8r	.	8r	.	8r	.	8r	.	.
8CC##	.	8E#	.	8F##	.	8ee#	.	.
4BBB#	.	4D#	.	4F##	.	4ff##	.	i
8r	.	4C##	.	8r	.	8r	.	.
8AAA##X	.	.	.	8e#	.	8gg#	.	V65
=170	=170	=170	=170	=170	=170	=170	=170	=170
1BBB#	sf	4D#	.	4d#	.	4ff##	.	i
.	.	8r	.	8r	.	4r	.	.
.	.	8D#	.	8d#	.	.	.	.
.	.	4D#	.	4d#	.	4ff##	.	.
.	.	8r	.	8r	.	8r	.	.
.	.	8D#	.	8d#	.	8ee#	.	.
=171	=171	=171	=171	=171	=171	=171	=171	=171
1GG#	sf	4B#	.	4e#	.	4dd#	.	VI
.	.	8r	.	8r	.	8r	.	.
.	.	8B#	.	8e#	.	8cc##	.	.
.	.	4B#	.	4e#	.	4dd#	.	.
.	.	8r	.	8r	.	8r	.	.
.	.	8B#	.	8e#	.	8b#	.	.
=172	=172	=172	=172	=172	=172	=172	=172	=172
4FF##	.	4A##X	.	4f##	.	4cc##	.	V
4r	.	8r	.	8r	.	4r	.	.
.	.	8A##	.	8F##	.	.	.	.
2r	.	4A##	.	4F##	.	4ee#	.	V7
.	.	8r	.	8r	.	8r	.	.
.	.	8B#	.	8G#	.	8dd#	.	.
=173	=173	=173	=173	=173	=173	=173	=173	=173
1r	.	4c##	.	4A##X	.	4cc##	.	V65
.	.	8r	.	8r	.	8r	.	.
.	.	8d#	.	8B#	.	8b#	.	.
.	.	4e#	.	4c##	.	4a##X	.	V43
.	.	8r	.	8r	.	8r	.	.
.	.	8F##	.	8c## 8e#	.	8g#	.	.
=174	=174	=174	=174	=174	=174	=174	=174	=174
1r	.	1F##	sf	4c## 4e#	.	4f##	.	V7
.	.	.	.	4r	.	8r	.	.
.	.	.	.	.	.	8f##	.	.
.	.	.	.	4ee#	.	4f##	.	.
.	.	.	.	8r	.	8r	.	.
.	.	.	.	8dd#	.	8f##	.	.
=175	=175	=175	=175	=175	=175	=175	=175	=175
1r	.	1e#	sf	4cc##	.	4f##	.	V2
.	.	.	.	8r	.	8r	.	.
.	.	.	.	8b#	.	8f##	.	.
.	.	.	.	4cc##	.	4f##	.	.
.	.	.	.	8r	.	8r	.	.
.	.	.	.	8a##X	.	8f##	.	.
=176	=176	=176	=176	=176	=176	=176	=176	=176
1r	.	4d#	.	4b#	.	4f##	.	i6
.	.	4r	.	8r	.	8r	.	.
.	.	.	.	8ff##	.	8f##	.	.
.	.	4BB#	.	4ff##	.	4d#	.	i
.	.	8r	.	8r	.	8r	.	.
.	.	8C##	.	8ee#	.	8e#	.	.
=177	=177	=177	=177	=177	=177	=177	=177	=177
1r	.	4D#	.	4dd#	.	4f##	.	i6
.	.	8r	.	8r	.	8r	.	.
.	.	8E#	.	8cc##	.	8g#	.	.
.	.	4F##	.	4b#	.	4d#	.	i64
.	.	8r	.	8r	.	8r	.	.
.	.	8G#	.	8a##X	.	8e#	.	.
=178	=178	=178	=178	=178	=178	=178	=178	=178
2r	.	4F##	.	1b#	sf	4d#	.	.
.	.	8r	.	.	.	8r	.	.
.	.	8f##	.	.	.	8B# 8d#	.	.
4FF##	.	4dd#	.	.	.	4B# 4d#	.	.
8r	.	8r	.	.	.	8r	.	.
8EE#	.	8cc##	.	.	.	8B# 8d#	.	.
=179	=179	=179	=179	=179	=179	=179	=179	=179
4DD#	.	4b#	.	1gg#	sf	4B# 4d#	.	VI64
8r	.	8r	.	.	.	8r	.	.
8CC##	.	8a##X	.	.	.	8B# 8d#	.	.
4DD#	.	4b#	.	.	.	4B# 4d#	.	VI64
8r	.	8r	.	.	.	8r	.	.
8BBB#	.	8D#	.	.	.	8B# 8d#	.	.
=180	=180	=180	=180	=180	=180	=180	=180	=180
4AAA##X	.	4E#	.	4ff##	.	4c## 4e#	.	V65
4r	.	4r	.	4r	.	8r	.	.
.	.	.	.	.	.	8c## 8e#	.	.
4FF##	.	4E#	.	2r	.	4A##X	.	V7
8r	.	8r	.	.	.	8r	.	.
8GG#	.	8E#	.	.	.	8B#	.	.
=181	=181	=181	=181	=181	=181	=181	=181	=181
4AA##X	.	4E#	.	1r	.	4c##	.	V65
8r	.	8r	.	.	.	8r	.	.
8BB#	.	8D#	.	.	.	8d#	.	.
4C##	.	4C##	.	.	.	4e#	.	V43
8r	.	8r	.	.	.	8r	.	.
8D#	.	8BB#	.	.	.	8f##	.	.
=182	=182	=182	=182	=182	=182	=182	=182	=182
4E#	.	4AA##X	.	4c##	.	1f##	sf	V2
4r	.	4r	.	8r	.	.	.	.
.	.	.	.	8c##	.	.	.	.
2r	.	4e#	.	4c##	.	.	.	.
.	.	8r	.	8r	.	.	.	.
.	.	8d#	.	8B#	.	.	.	.
=183	=183	=183	=183	=183	=183	=183	=183	=183
1r	.	4c##	.	4A##X	.	(1ee#	sf	V43
.	.	8r	.	8r	.	.	.	.
.	.	8B#	.	8d#	.	.	.	.
.	.	4c##	.	4e#	.	.	.	.
.	.	8r	.	8r	.	.	.	.
.	.	8A##X	.	8c##	.	.	.	.
=184	=184	=184	=184	=184	=184	=184	=184	=184
1BB#	sf > ]]	4c#	>	4d##X	>	2.dd##X	>	iv.V(2)
.	.	8r	.	8r	.	.	.	.
.	.	8B#	.	8a#	.	.	.	.
.	.	4c#	.	4a#	.	.	.	.
.	.	8r	.	8r	.	4ee#	]]	.
.	.	8B#	]]	8g#	]]	.	.	.
=185	=185	=185	=185	=185	=185	=185	=185	=185
1A#	<[	4A#	<	4f##	<	2dd##X	<	V2
.	.	8r	.	8r	.	.	.	.
.	.	8G#	.	8e#	.	.	.	.
.	.	4A#	.	4f##	.	2cc#)	[[	V2(+9)
.	.	4d##X	[[	4B#	[[	.	.	.
=186	=186	=186	=186	=186	=186	=186	=186	=186
2.G#	>	2.B#	>	2d##X	>	2.b#	>	i6
.	.	.	.	4e#	.	.	.	.
(4G#	] p	(4B#	] p	(4e#	] p	(4ee#	] p	.
=187	=187	=187	=187	=187	=187	=187	=187	=187
4F##	.	4A#	.	[1B#)	.	4dd##X	.	V43
4E#	.	4G#	.	.	.	4ee#	.	i
4D##X	.	4F##	.	.	.	4ff##	.	V65
4E#)	.	4E#)	.	.	.	4gg#	.	i
=188	=188	=188	=188	=188	=188	=188	=188	=188
(1BB#	<	(1D##X	.	1B#]	.	4ff##)	.	V
.	.	.	.	.	.	4r	.	.
.	.	.	.	.	.	4r	.	.
.	.	.	.	.	.	(4ee#	<	.
=189	=189	=189	=189	=189	=189	=189	=189	=189
1A#)	[[	2.D##X)	.	2.F##	.	2dd##X	.	#viio43
.	.	.	.	.	.	2cc#	[[	V2(+9)
.	.	(4BB#	<	(4B#	<	.	.	.
=190	=190	=190	=190	=190	=190	=190	=190	=190
2.G#	>	2D##X	.	2d##X	.	2.b#)	>	i
.	.	4E#)	.	4e#)	.	.	.	.
(4E#	p ]]	(4G#	[ p	[4B#	[ p	(4ee#	p ]]	.
=191	=191	=191	=191	=191	=191	=191	=191	=191
1BB#)	.	4E#	.	(4B#]	.	4gg#	.	V(64)
.	.	4F##	.	4A#	.	4ff##	.	V7
.	.	4E#	.	4G#	.	4ee#	.	V(64)
.	.	4F##)	.	4A#)	.	4dd##X)	.	V7
=192	=192	=192	=192	=192	=192	=192	=192	=192
(4GG#	.	(4BB#	.	4G#	.	4ee#	.	i\\
4FF##	.	4F##	.	4r	.	4r	.	.
4EE#)	.	4E#)	.	2r	.	2r	.	.
(4EE#	.	(4E#	.	.	.	.	.	.
=193	=193	=193	=193	=193	=193	=193	=193	=193
2DD##X	<	2D##X	<	2r	.	2r	.	#viio7
2CC#	[[	2C#	[[	4r	.	4r	.	#viio2
.	.	.	.	(4F##	<	(4d##X	<	.
=194	=194	=194	=194	=194	=194	=194	=194	=194
2.BBB#)	>	2.BB#)	>	2d##X	.	2f##	.	V
.	.	.	.	4e#)	.	4g#)	.	i64
(4EE#	] p	(4E#	] p	4r	[	4r	[	.
=195	=195	=195	=195	=195	=195	=195	=195	=195
4DD##X	.	4D##X	.	1r	.	1r	.	V6
4EE#	.	4E#	.	.	.	.	.	.
4FF##	.	4F##	.	.	.	.	.	.
4GG#)	.	4G#)	.	.	.	.	.	.
=196	=196	=196	=196	=196	=196	=196	=196	=196
2.FF##	.	2.F##	.	1r	.	1r	.	.
(4EE#	.	(4E#	.	.	.	.	.	.
=197	=197	=197	=197	=197	=197	=197	=197	=197
2DD##X	<	2D##X	<	2r	.	2r	.	#viio7
2CC#	[[	2C#	[[	4r	.	4r	.	#viio2
.	.	.	.	(4F##	<	(4dd##X	<	.
=198	=198	=198	=198	=198	=198	=198	=198	=198
2.BBB#)	>	2.BB#)	>	2d##X	.	2ff##	.	V
.	.	.	.	4e#)	.	4gg#)	.	i64
(4EE#	] p	(4E#	] p	4r	[	4r	[	.
=199	=199	=199	=199	=199	=199	=199	=199	=199
4GG#	.	4G#	.	1r	.	1r	.	V6
4FF##	.	4F##	.	.	.	.	.	.
4EE#	.	4E#	.	.	.	.	.	.
4DD##X	.	4D##X	.	.	.	.	.	.
=200	=200	=200	=200	=200	=200	=200	=200	=200
4AA#	.	4A#	.	2r	.	1r	.	V64
4GG#	.	4G#	.	.	.	.	.	.
4FF##	.	4F##	.	4r	.	.	.	.
4EE#)	.	4E#)	.	(4e#	p	.	.	.
=201	=201	=201	=201	=201	=201	=201	=201	=201
!LO:TX:b:i:t=cresc.	!	!LO:TX:b:i:t=cresc.	!	!LO:TX:b:i:t=cresc.	!	!	!	!
(4BB#	.	(4B#	.	4g#	.	1r	.	V64
4AA#	.	4A#	.	4f##	.	.	.	.
4GG#	.	4G#	.	4e#	.	.	.	.
4FF##	.	4F##	.	4d##X	.	.	.	.
=202	=202	=202	=202	=202	=202	=202	=202	=202
4C#	.	4c#	.	4a#	.	2r	.	i64
4BB#	.	4B#	.	4g#	.	.	.	.
4AA#	.	4A#	.	4f##	.	4r	.	i6
4GG#)	.	4G#)	.	4e#)	.	4bb#	p	.
=203	=203	=203	=203	=203	=203	=203	=203	=203
4BB#	p	4F##	p	(8f##L	p	4aa#	.	V[V7
.	.	.	.	8g#	.	.	.	.
8r	.	4r	.	8f##	.	8r	.	.
8B#	.	.	.	8e#J	.	8gg#	.	.
4B#	.	4r	.	8f##L	.	4aa#	.	.
.	.	.	.	8d##X	.	.	.	.
8r	.	8r	.	8e#	.	8r	.	.
8B#	.	8BB#	.	8d##J)	.	8ff##	.	.
=204	=204	=204	=204	=204	=204	=204	=204	=204
4B#	.	4BB#	.	(8e#L	.	(2gg#	.	i64
.	.	.	.	8f##	.	.	.	.
8r	.	4r	.	8e#	.	.	.	.
8B#	.	.	.	8d##XJ	.	.	.	.
4B#	.	4r	.	8e#L	.	4aa#)	.	i64(7)
.	.	.	.	8g#	.	.	.	.
8r	.	8r	.	8f##	.	8r	.	.
8B#	.	8BB#	.	8e#J)	.	8gg#	.	i64
=205	=205	=205	=205	=205	=205	=205	=205	=205
4B#	.	4BB#	.	(8a#L	.	4ff##	.	V7
.	.	.	.	8b#	.	.	.	.
8r	.	4r	.	8a#	.	8r	.	.
8B#	.	.	.	8g#J	.	8ee#	.	.
4B#	.	4r	.	8a#L	.	4ff##	.	.
.	.	.	.	8f##	.	.	.	.
8r	.	8r	.	8g#	.	8r	.	.
8B#	.	8BB#	.	8f##J)	.	8dd##X	.	.
=206	=206	=206	=206	=206	=206	=206	=206	=206
4B#	.	4BB#	.	(8g#L	.	2ee#	.	i64
.	.	.	.	8a#	.	.	.	.
8r	.	4r	.	8g#	.	.	.	.
8B#	.	.	.	8f##J	.	.	.	.
4B#	.	4r	.	8g#L	.	4aa#	.	i64(7)]
.	.	.	.	8e#	.	.	.	.
8r	.	8r	.	8f#	.	8r	.	.
8c#	.	8C#	.	8e#J)	.	8gg#	.	II.I
=207	=207	=207	=207	=207	=207	=207	=207	=207
4G#	.	4B#	.	(8d#L	.	4ff#	.	V7
.	.	.	.	8e#	.	.	.	.
8r	.	4r	.	8d#	.	8r	.	.
8G#	.	.	.	8c#J	.	8ee#	.	.
4G#	.	4r	.	8d#L	.	4ff#	.	.
.	.	.	.	8B#	.	.	.	.
8r	.	8r	.	8c#	.	8r	.	.
8G#	.	8f#	.	8B#J)	.	8dd#	.	.
=208	=208	=208	=208	=208	=208	=208	=208	=208
4G#	.	4e#	.	4c#	.	(8ee#L	.	I
.	.	.	.	.	.	8cc#	.	.
4r	.	4r	.	4r	.	8dd#	.	.
.	.	.	.	.	.	8ee#J	.	.
4A#	.	4r	.	4c#	.	8ff#L	.	IV6
.	.	.	.	.	.	8gg#	.	.
8r	.	8r	.	8r	.	8ff#	.	.
8G#	.	8e#	.	8B#	.	8ee#J)	.	I
=209	=209	=209	=209	=209	=209	=209	=209	=209
4F#	.	4a#	.	4A#	.	(8dd#L	.	ii6
.	.	.	.	.	.	8ee#	.	.
8r	.	4r	.	8r	.	8dd#	.	.
8E#	.	.	.	8G#	.	8cc##XJ	.	V43/ii
4F#	.	4r	.	4A#	.	8dd#L	.	ii6
.	.	.	.	.	.	8b#	.	.
8r	.	8r	.	8r	.	8cc#	.	.
8D#	.	8G#	.	8F#	.	8b#J)	.	V43
=210	=210	=210	=210	=210	=210	=210	=210	=210
!LO:TX:b:i:t=cresc.	!	!LO:TX:b:i:t=cresc.	!	!LO:TX:b:i:t=cresc.	!	!	!	!
4E#	.	(8G#L	.	4g#	.	4cc#	.	I6
.	.	8e#	.	.	.	.	.	.
8r	.	8f#	.	8r	.	4r	.	.
8E#	.	8g#J	.	8cc#	.	.	.	.
4F#	.	8a#L	.	4cc#	.	2r	.	IV
.	.	8b#	.	.	.	.	.	.
8r	.	8a#	.	8r	.	.	.	.
8E#	.	8g#J)	.	8cc#	.	.	.	.
=211||	=211||	=211||	=211||	=211||	=211||	=211||	=211||	=211||
*k[f#c#g#d#a#e#b#]	*	*k[f#c#g#d#a#e#b#]	*	*k[f#c#g#d#a#e#b#]	*	*k[f#c#g#d#a#e#b#]	*	*
*a#:	*	*a#:	*	*a#:	*	*a#:	*	*
4D#	.	(8f#L	.	4ff#	.	4r	.	ii
.	.	8g#	.	.	.	.	.	.
8r	.	8f#	.	4r	.	8r	.	.
8C#	.	8e#J	.	.	.	8g#	.	.
!	!	!	!	!	!	!LO:TX:b:i:t=cresc.	!	!
4D#	.	8f#L	.	2r	.	4g#	.	V43
.	.	8d#	.	.	.	.	.	.
8r	.	8e#	.	.	.	8r	.	.
8BB#	.	8d#J)	.	.	.	8g#	.	V65
=212	=212	=212	=212	=212	=212	=212	=212	=212
4C#	.	(8e#L	.	4r	.	4ee#	.	I
.	.	8f#	.	.	.	.	.	.
8r	.	8e#	.	8r	.	4r	.	.
8BB#	.	8d#J)	.	8cc#	.	.	.	.
4AA#	.	(8c#L	.	4cc#	.	4ff#	.	IV6
.	.	8d#	.	.	.	.	.	.
8r	.	8c#	.	8r	.	8r	.	.
8GG#	.	8B#J)	.	8cc#	.	8ee#	.	.
=213	=213	=213	=213	=213	=213	=213	=213	=213
4FF#	.	(8A#L	.	4aa#	.	4dd#	.	ii6
.	.	8B	.	.	.	.	.	.
8r	.	8A#	.	8r	.	8r	.	.
8EE#	.	8G#J)	.	8bb	.	8cc##X	.	V7/ii
4FF#	.	(8A#L	.	4aa#	.	4dd#	.	ii6
.	.	8D#	.	.	.	.	.	.
8r	.	8A#	.	8r	.	8r	.	.
8FF##X	.	8D#J)	.	8aa#	.	8cc#	.	V65/V
=214	=214	=214	=214	=214	=214	=214	=214	=214
4GG#	f	(8D#L	f	4gg#	f	4b#	f	V
.	.	8E#	.	.	.	.	.	.
8r	.	8D#	.	8r	.	8r	.	.
8AA#	.	8C#J)	.	8dd# 8ff##X	.	8a#	.	.
4BB#	.	(8D#L	.	4dd# 4ff#	.	4g#	.	V65
.	.	8E#	.	.	.	.	.	.
8r	.	8D#	.	8r	.	8r	.	.
8C#	.	8A#J)	.	8cc# 8ee	.	8f##X	.	#ivo43
=215	=215	=215	=215	=215	=215	=215	=215	=215
4D#	.	(8B#L	.	4b#	.	4f#	.	V43
.	.	8c#	.	.	.	.	.	.
8r	.	8B#	.	8r	.	8r	.	.
8FF#	.	8g#J)	.	8d#	.	8dd#	.	.
4EE#	.	(8G#L	.	4c#	.	4gg#	.	I6
.	.	8A#	.	.	.	.	.	.
8r	.	8G#	.	8r	.	8r	.	.
8DD#	.	8F#J)	.	8G# 8g#	.	8b#	.	.
=216	=216	=216	=216	=216	=216	=216	=216	=216
(1CC# [1GG#	p	[1E#	p	[1G# [1g#	p	[2ee#	p	I
.	.	.	.	.	.	(8ee#L]	.	.
.	.	.	.	.	.	8dd#	.	.
.	.	.	.	.	.	8cc#	.	.
.	.	.	.	.	.	8b#J	.	.
=217	=217	=217	=217	=217	=217	=217	=217	=217
1CC#) 1GG#]	.	1E#]	.	1G#] 1g#]	.	8cc#L	.	.
.	.	.	.	.	.	8b#	.	.
.	.	.	.	.	.	8a#	.	.
.	.	.	.	.	.	8g#J	.	.
.	.	.	.	.	.	8f#L	.	.
.	.	.	.	.	.	8e#	.	.
.	.	.	.	.	.	8d#	.	.
.	.	.	.	.	.	8c#J)	.	.
=218	=218	=218	=218	=218	=218	=218	=218	=218
!LO:TX:b:i:t=cresc.	!	!LO:TX:b:i:t=cresc.	!	!LO:TX:b:i:t=cresc.	!	!LO:TX:b:i:t=cresc.	!	!
(1DD# [1GG#	.	[1F#	.	[1G# [1g#	.	(4.c#	.	V43(7)
.	.	.	.	.	.	8B#)	.	V43
!	!	!	!	!	!	!LO:TX:b:i:t=poco riten.	!	!
.	.	.	.	.	.	2gg#	.	.
=219	=219	=219	=219	=219	=219	=219	=219	=219
!	!	!	!	!	!	!LO:TX:b:i:t=espress.	!	!
1DD#) 1GG#]	.	1F#]	.	1G#] 1g#]	.	2gg#	.	.
.	.	.	.	.	.	2gg#	.	.
=220	=220	=220	=220	=220	=220	=220	=220	=220
!	!	!	!	!	!	!LO:TX:b:B:t=in tempo	!	!
[1CC# [1GG#	p	[2e#	p	(2g# (1G#	p	(2gg#	p	I
.	.	(8e#L]	.	[2e#)	.	2ccc#	.	.
.	.	8d#	.	.	.	.	.	.
.	.	8c#	.	.	.	.	.	.
.	.	8B#J	.	.	.	.	.	.
=221	=221	=221	=221	=221	=221	=221	=221	=221
1CC#] 1GG#]	.	8c#L	.	1e#] 1G#)	.	2eee#	.	.
.	.	8B#	.	.	.	.	.	.
.	.	8A#	.	.	.	.	.	.
.	.	8G#J	.	.	.	.	.	.
.	.	8F#L	.	.	.	2ggg#)	.	.
.	.	8E#	.	.	.	.	.	.
.	.	8D#	.	.	.	.	.	.
.	.	8C#J)	.	.	.	.	.	.
=222	=222	=222	=222	=222	=222	=222	=222	=222
!LO:TX:b:i:t=cresc.	!	!LO:TX:b:i:t=cresc.	!	!LO:TX:b:i:t=cresc.	!	!LO:TX:b:i:t=cresc.	!	!
[1DD# [1GG#	.	(4.C#	.	[1G# [1f#	.	(2gg#	.	V43
.	.	8BB#)	.	.	.	.	.	.
!	!	!LO:TX:b:i:t=espress.	!	!	!	!	!	!
!	!	!LO:TX:b:i:t=poco riten.	!	!	!	!	!	!
.	.	2g#	.	.	.	2bb#	.	.
=223	=223	=223	=223	=223	=223	=223	=223	=223
1DD#] 1GG#]	.	2g#	.	1G#] 1f#]	.	2ddd#	.	.
.	.	2g#	.	.	.	2ggg#)	.	.
=224	=224	=224	=224	=224	=224	=224	=224	=224
!	!	!LO:TX:b:B:t=in tempo	!	!	!	!	!	!
[1CC# [1GG#	p	[1G# [1e#	p	[2ee#	p	(2gg#	p	I
.	.	.	.	(8ee#L]	.	2ccc#	.	.
.	.	.	.	8dd#	.	.	.	.
.	.	.	.	8cc#	.	.	.	.
.	.	.	.	8b#J	.	.	.	.
=225	=225	=225	=225	=225	=225	=225	=225	=225
1CC#] 1GG#]	.	1G#] 1e#]	.	8cc#L	.	2eee#	.	.
.	.	.	.	8b#	.	.	.	.
.	.	.	.	8a#	.	.	.	.
.	.	.	.	8g#J	.	.	.	.
.	.	.	.	8f#L	.	2ggg#)	.	.
.	.	.	.	8e#	.	.	.	.
.	.	.	.	8d#	.	.	.	.
.	.	.	.	8c#J)	.	.	.	.
=226	=226	=226	=226	=226	=226	=226	=226	=226
!LO:TX:b:i:t=cresc.	!	!LO:TX:b:i:t=cresc.	!	!LO:TX:b:i:t=cresc.	!	!LO:TX:b:i:t=cresc.	!	!
[1DD# [1GG#	.	[1G# [1f#	.	(4.c#	.	[2ff#	.	V43
.	.	.	.	8B#)	.	.	.	.
!	!	!	!	!LO:TX:b:i:t=espress.	!	!	!	!
!	!	!	!	!LO:TX:b:i:t=poco riten.	!	!	!	!
.	.	.	.	2gg#	.	(8ff#L]	.	.
.	.	.	.	.	.	8ee#	.	.
.	.	.	.	.	.	8dd#	.	.
.	.	.	.	.	.	8cc#J	.	.
=227	=227	=227	=227	=227	=227	=227	=227	=227
1DD#] 1GG#]	.	1G#] 1f#]	.	2gg#	.	8b#L	.	.
.	.	.	.	.	.	8a#	.	.
.	.	.	.	.	.	8g#	.	.
.	.	.	.	.	.	8f#J	.	.
.	.	.	.	2gg#	.	8g#L	.	.
.	.	.	.	.	.	8f#	.	.
.	.	.	.	.	.	8e#	.	.
.	.	.	.	.	.	8d#J)	.	.
=228	=228	=228	=228	=228	=228	=228	=228	=228
!	!	!	!	!LO:TX:b:B:t=in tempo	!	!	!	!
2EE#	.	2G# 2g#	.	2gg#	.	(4.d#	.	#vii65/ii
.	.	.	.	.	.	8c##X)	.	.
!LO:TX:b:i:t=rit.	!	!LO:TX:b:i:t=rit.	!	!LO:TX:b:i:t=rit.	!	!LO:TX:b:i:t=rit.	!	!
2EE#	.	2E# 2G#	.	2c##X	.	2bb	.	.
=229	=229	=229	=229	=229	=229	=229	=229	=229
1E#	.	2E# 2G#	.	2c##X	.	2bb	.	.
.	.	2g#	.	2c##	.	2bb	.	.
=230	=230	=230	=230	=230	=230	=230	=230	=230
1A#	.	2r	.	2r	.	(4.g#	.	#viio65/V
.	.	.	.	.	.	8f##X)	.	.
.	.	2c# 2e	.	2f##X	.	2ccc#	.	.
=231	=231	=231	=231	=231	=231	=231	=231	=231
1e	.	2A# 2c#	.	2f##X	.	2ccc#	.	#viio43/V
.	.	2A# 2c#	.	2f##	.	2ccc#	.	.
=232	=232	=232	=232	=232	=232	=232	=232	=232
[1G#	p	(2f#	p	(2aX	p	(2ddd#	p	V[iio6
!	!	!	!	!	!	!LO:TX:b:B:t=in tempo	!	!
.	.	4e#X	.	4g#	.	4eee#	.	I64
.	.	4d#)	.	4f#)	.	4fff#	.	V43
=233	=233	=233	=233	=233	=233	=233	=233	=233
1G#]	.	2c#	.	2e#	.	2ggg#)	.	I64
.	.	(2d#	.	(2f#	.	(2b#	.	V7]
=234	=234	=234	=234	=234	=234	=234	=234	=234
[1c#	.	2e#	.	2g#	.	2b	.	V7/IV
.	.	2f#	.	2c#	.	2a#	.	IV64
=235	=235	=235	=235	=235	=235	=235	=235	=235
1c#]	.	2d#	.	2f#	.	2b#X	.	V43
.	.	2g#	.	2e#	.	2cc#	.	I
=236	=236	=236	=236	=236	=236	=236	=236	=236
(2.c#	.	2e#	.	2g#	.	2b	.	V7/IV]
.	.	4c#	.	4f#	.	(2a#)	.	V65/ii
[4c##X)	.	4g#)	.	4e#)	.	.	.	.
=237	=237	=237	=237	=237	=237	=237	=237	=237
!LO:TX:b:i:t=cresc.	!	!	!	!LO:TX:b:i:t=cresc.	!	!LO:TX:b:i:t=cresc.	!	!
1c##]	.	4r	.	1e# 1g#	.	[1a#)	.	.
!	!	!LO:TX:b:i:t=cresc.	!	!	!	!	!	!
.	.	(8A#L	.	.	.	.	.	.
.	.	8c##XJ	.	.	.	.	.	.
.	.	4e#')	.	.	.	.	.	.
.	.	(8e#L	.	.	.	.	.	.
.	.	8A#J	.	.	.	.	.	.
=238	=238	=238	=238	=238	=238	=238	=238	=238
[1d#	p	4d#')	p	(2f#	p	2a#]	p	ii[ii
.	.	4r	.	.	.	.	.	.
.	.	(2f#	.	2d#	.	(2a#	.	ii
=239	=239	=239	=239	=239	=239	=239	=239	=239
1d#]	.	2e#	.	2g#	.	2cc##X	.	V43/ii
.	.	2a#)	.	2f#)	.	2dd#	.	ii]
=240	=240	=240	=240	=240	=240	=240	=240	=240
[1e	.	(2a#	.	1f##X	.	2cc#	.	#viio2/V
.	.	4f##X	.	.	.	[2b#)	.	#VII6
.	.	4B#)	.	.	.	.	.	.
=241	=241	=241	=241	=241	=241	=241	=241	=241
!LO:TX:b:i:t=cresc.	!	!	!	!LO:TX:b:i:t=cresc.	!	!LO:TX:b:i:t=cresc.	!	!
1e]	.	4r	.	[1B# [1f##X	.	2.b#]	.	I.I
!	!	!LO:TX:b:i:t=cresc.	!	!	!	!	!	!
.	.	8BB#L	.	.	.	.	.	.
.	.	8D##XJ	.	.	.	.	.	.
.	.	4F##X'	.	.	.	.	.	.
.	.	8F##L	.	.	.	4ff##X	.	.
.	.	8BB#J	.	.	.	.	.	.
=242	=242	=242	=242	=242	=242	=242	=242	=242
[1BBB# [1FF##X	p	[2e	p	((2B#] 2f##]	p	(2ff##X	p	I
.	.	(8eL]	.	[2F##X)) [2e	.	2bb#	.	.
.	.	8c##X	.	.	.	.	.	.
.	.	8B#	.	.	.	.	.	.
.	.	8A##XJ	.	.	.	.	.	.
=243	=243	=243	=243	=243	=243	=243	=243	=243
1BBB#] 1FF##]	.	8B#L	.	1F##] 1e]	.	2ddd##X	.	.
.	.	8A##X	.	.	.	.	.	.
.	.	8G##X	.	.	.	.	.	.
.	.	8F##XJ	.	.	.	.	.	.
.	.	8E#XL	.	.	.	2fff##X)	.	.
.	.	8D##X	.	.	.	.	.	.
.	.	8C##X	.	.	.	.	.	.
.	.	8BB#J)	.	.	.	.	.	.
=244	=244	=244	=244	=244	=244	=244	=244	=244
!LO:TX:b:i:t=cresc.	!	!LO:TX:b:i:t=cresc.	!	!LO:TX:b:i:t=cresc.	!	!LO:TX:b:i:t=cresc.	!	!
[1CC##X [1FF##X	.	(4.BB#	.	[1F##X [1e#X	.	(2ff##X	.	V43(7)
.	.	8AA##X)	.	.	.	.	.	.
!	!	!LO:TX:b:i:t=espress.	!	!	!	!	!	!
!	!	!LO:TX:b:i:t=poco riten.	!	!	!	!	!	!
.	.	2f##X	.	.	.	2aa##X	.	V43
=245	=245	=245	=245	=245	=245	=245	=245	=245
1CC##] 1FF##]	.	2f##X	.	1F##] 1e#]	.	2ccc##X	.	.
.	.	2f##	.	.	.	2fff##X)	.	.
=246	=246	=246	=246	=246	=246	=246	=246	=246
!	!	!LO:TX:b:B:t=in tempo	!	!	!	!	!	!
((1BBB# 1FF##X	p	(8f##XL	p	(2F##X	p	(2dd##X	p	I
.	.	8e#	.	.	.	.	.	.
.	.	8d##X	.	.	.	.	.	.
.	.	8c##XJ	.	.	.	.	.	.
.	.	8eL	.	2B#	.	(8dd##L)	.	.
.	.	8c##	.	.	.	8cc##X	.	.
.	.	8B#	.	.	.	8b#	.	.
.	.	8A##XJ	.	.	.	8a##XJ	.	.
=247	=247	=247	=247	=247	=247	=247	=247	=247
1BBB#)) 1FF##X	.	8B#L	.	2d##X	.	8b#L	.	.
.	.	8A##X	.	.	.	8a##X	.	.
.	.	8G##X	.	.	.	8g##X	.	.
.	.	8F##XJ	.	.	.	8f##XJ	.	.
.	.	8E#XL	.	2f##X)	.	8e#L	.	.
.	.	8D##X	.	.	.	8d##X	.	.
.	.	8C##X	.	.	.	8c##X	.	.
.	.	8BB#J)	.	.	.	8B#J)	.	.
=248||	=248||	=248||	=248||	=248||	=248||	=248||	=248||	=248||
*k[]	*	*k[]	*	*k[]	*	*k[]	*	*
*b#:	*	*b#:	*	*b#:	*	*b#:	*	*
[1CC## [1FF##X	.	(4.BB#	.	2F##X	.	(4.B#	.	V43(7)
.	.	8AA##X)	.	.	.	8A##X)	.	V43
!	!	!LO:TX:b:i:t=espress.	!	!	!	!LO:TX:b:i:t=poco riten.	!	!
!	!	!LO:TX:b:i:t=poco riten.	!	!	!	!LO:TX:b:i:t=espress.	!	!
.	.	2f##X	.	[2A##X	.	2ff##X	.	.
=249	=249	=249	=249	=249	=249	=249	=249	=249
1CC##] 1FF##]	.	2f##	.	2A##]	.	2ff##	.	.
.	.	2f##	.	2F## 2e#	.	2ff##	.	.
=250	=250	=250	=250	=250	=250	=250	=250	=250
!	!	!	!	!	!	!LO:TX:b:B:t=in tempo	!	!
((2DD##X 2FF##	.	2r	.	2r	.	(4.c##	.	#viio7/iv
.	.	.	.	.	.	8B##X)	.	.
!LO:TX:b:i:t=rit.	!	!LO:TX:b:i:t=rit.	!	!LO:TX:b:i:t=rit.	!	!LO:TX:b:i:t=rit.	!	!
2DD##)) 2FF##	.	2F##	.	(2c#	.	2aa#	.	.
=251	=251	=251	=251	=251	=251	=251	=251	=251
1D##X	.	2F##	.	2a#	.	2aa#	.	.
.	.	2F##	.	2c#)	.	2aa#	.	.
=252	=252	=252	=252	=252	=252	=252	=252	=252
1G##X	.	1B#	.	1d#	.	(4.f##	.	#viio65/V
.	.	.	.	.	.	8e##X)	.	.
.	.	.	.	.	.	2bb#	.	.
=253	=253	=253	=253	=253	=253	=253	=253	=253
1d#	.	1e##X	.	1g##X	.	2bb#	.	#viio2/V
.	.	.	.	.	.	2bb#	.	.
=254	=254	=254	=254	=254	=254	=254	=254	=254
!	!LO:DY:a	!	!	!	!	!	!	!
(2g#	p	(2e#X	p	(2a##X	p	(2ccc##	p	#viio2
!	!	!	!	!	!	!LO:TX:b:B:t=in tempo	!	!
[2f##)	.	(2d##X)	.	4b#	.	4ddd##X	.	I6
.	.	.	.	4cc##	.	4eee#	.	.
=255	=255	=255	=255	=255	=255	=255	=255	=255
(2f##]	.	2d##X)	.	2dd##X)	.	2fff##)	.	I6
2F##)	.	(2c##	.	(2e#	.	(2a##X	.	V7
=256	=256	=256	=256	=256	=256	=256	=256	=256
[1B#	.	2d##X	.	2f##	.	2a#	.	I[V7/IV
.	.	2B#	.	[2e#	.	2g##X	.	IV64
=257	=257	=257	=257	=257	=257	=257	=257	=257
1B#_	.	2c##	.	2e#]	.	2a##X	.	V43
.	.	[2f##)	.	(2d##X)	.	2b#)	.	I
=258	=258	=258	=258	=258	=258	=258	=258	=258
(1B#]	.	(2f##]	.	(2d##X)	.	(2a#	.	V7/iv
.	.	2B#	.	(2e#)	.	2g#	.	iv64]
=259	=259	=259	=259	=259	=259	=259	=259	=259
2A##X	.	2c##	.	(2e#)	.	1f##)	.	i
2B#)	.	2B#)	.	2d#)	.	.	.	.
=260	=260	=260	=260	=260	=260	=260	=260	=260
(2AA##X	.	(2c##	.	(2G#	.	(2e#	.	#viio7
2BB#	.	2B#	.	2F##	.	[2d#)	.	i
=261	=261	=261	=261	=261	=261	=261	=261	=261
2EE##X	.	2G##X	.	2B#	.	(2d#]	.	#viio7/V
2FF##)	.	2C##)	.	2A##X)	.	2c##)	.	V
=262	=262	=262	=262	=262	=262	=262	=262	=262
4FF##	.	4C##	.	4A##X	.	4c##	.	.
8r	.	4r	.	8r	.	8r	.	.
8GG#	.	.	.	8A##	.	8c##	.	.
4FF##	pp	4r	pp	4A##	pp	4c##	pp	.
8r	.	8r	.	8r	.	8r	.	.
8EE#X	.	8G#	.	8A##	.	8c##	.	.
=263	=263	=263	=263	=263	=263	=263	=263	=263
4DD#	.	4F##	.	4B#	.	4f##	.	i6
!LO:TX:b:i:t=sempre	!	!	!	!	!	!	!	!
8r	.	8r	.	8r	.	8r	.	.
8CC##	.	8E#	.	8e#	.	8cc##	.	.
!	!	!LO:TX:b:i:t=sempre	!	!LO:TX:b:i:t=sempre	!	!LO:TX:b:i:t=sempre	!	!
4BBB#	.	4E#	.	4g#	.	4cc##	.	ii%2
8r	.	8r	.	8r	.	8r	.	.
8AAA##X	.	8E#	.	8f##	.	8cc##	.	V65
=264	=264	=264	=264	=264	=264	=264	=264	=264
4BBB#	pp	4D#	pp	4f##	pp	4dd#	pp	i
(8BBB#L	.	8r	.	8r	.	8r	.	.
8DD#J	.	8D#	.	8f##	.	8bb#	.	.
4FF##')	.	4D#	.	4f##	.	4bb#	.	i64
(8GG#L	.	4D#	.	8r	.	8r	.	.
8BBB#J	.	.	.	8f##	.	8bb#	.	.
=265	=265	=265	=265	=265	=265	=265	=265	=265
4FF##)	.	4D#	.	4f##	.	4dd#	.	.
4r	.	(8BB#L	.	8r	.	8r	.	.
.	.	8D#J	.	8dd#	.	8bb#	.	.
2r	.	4F##')	.	4dd#	.	4bb#	.	.
.	.	(8G#L	.	8r	.	8r	.	.
.	.	8BB#J	.	8dd#	.	8bb#	.	.
=266	=266	=266	=266	=266	=266	=266	=266	=266
4r	.	4AA##X)	.	4cc##	.	4ee#	.	V65
(8AAA##XL	.	8r	.	8r	.	8r	.	.
8CC##J	.	8f##	.	8ee#	.	8ccc##	.	.
4FF##')	.	4f##	.	4ee#	.	4ccc##	.	V7
(8GG#L	.	8r	.	8r	.	8r	.	.
8AAA##J	.	8f##	.	8ee#	.	8ccc##	.	.
=267	=267	=267	=267	=267	=267	=267	=267	=267
4FF##)	.	4f##	.	4cc##	.	4ee#	.	.
*clefC4	*	*	*	*	*	*	*	*
8r	.	(8AA##XL	.	8r	.	8r	.	.
8f##	.	8C##J	.	8ee#	.	8ccc##	.	.
4f##	.	4F##')	.	4ee#	.	4ccc##	.	.
8r	.	(8G#L	.	8r	.	8r	.	.
8f##	.	8AA##J	.	8ee#	.	8ccc##	.	.
=268	=268	=268	=268	=268	=268	=268	=268	=268
!LO:TX:b:i:t=cresc.	!	!LO:TX:b:i:t=cresc.	!	!LO:TX:b:i:t=cresc.	!	!LO:TX:b:i:t=cresc.	!	!
4f##	.	4BB#)	.	4f## 4dd#	.	4ddd#	.	i
8r	.	(8D#L	.	(8d#L	.	4r	.	.
8f##	.	8F##J	.	8f##J	.	.	.	.
4f##	.	4B#')	.	4b#')	.	2r	.	.
8r	.	(8d#L	.	(8dd#L	.	.	.	.
8f##	.	8f##J	.	8ff##J	.	.	.	.
=269	=269	=269	=269	=269	=269	=269	=269	=269
4f##	.	4b#')	.	4bb#')	.	4r	.	i64
8r	.	8r	.	8r	.	(8b#L	.	.
8f##	.	8F##	.	8B# 8d#	.	8dd#J	.	.
4f##	.	4F##	.	4B# 4d#	.	4ff##')	.	.
8r	.	8r	.	8r	.	(8gg#L	.	.
8f##	.	8F##	.	8B# 8d#	.	8b#J	.	.
=270	=270	=270	=270	=270	=270	=270	=270	=270
4f##	.	4F##	.	4c## 4e#	.	4a##X')	.	V7
8r	.	(8AA##XL	.	(8A##XL	.	4r	.	.
8f##	.	8C##J	.	8c##J	.	.	.	.
4f##	.	4F##')	.	4f##')	.	2r	.	V
8r	.	(8A##XL	.	(8a##XL	.	.	.	.
8f##	.	8c##J	.	8cc##J	.	.	.	.
=271	=271	=271	=271	=271	=271	=271	=271	=271
4f##	.	4e#')	.	4ee#')	.	4r	.	V2
8r	.	8r	.	8r	.	(8a##XL	.	.
8f##	.	8F##	.	8c## 8e#	.	8cc##J	.	.
4f##	.	4F##	.	4c## 4e#	.	4ff##')	.	V7
8r	.	8r	.	8r	.	(8gg#L	.	.
8f##	.	8F##	.	8c## 8e#	.	8a##J	.	.
=272	=272	=272	=272	=272	=272	=272	=272	=272
4f##	f	4F##	f	4B# 4d#	f	4b#')	f	i64
*clefF4	*	*	*	*	*	*	*	*
(8BBB#L	.	(8BB#L	.	(8B#L	.	(8B#L	.	.
8DD#J	.	8D#J	.	8d#J	.	8d#J	.	.
4FF##')	.	4F##')	.	4f##')	.	4f##')	.	.
4r	.	(8G#L	.	(8g#L	.	(8g#L	.	.
.	.	8BB#J	.	8B#J	.	8B#J	.	.
=273	=273	=273	=273	=273	=273	=273	=273	=273
4r	.	4C##')	.	4c##')	.	4c##')	.	#viio65
(8CC##L	.	(8C##L	.	(8c##L	.	(8c##L	.	.
8EE#J	.	8E#J	.	8e#J	.	8e#J	.	.
4GG#')	.	4G#')	.	4g#')	.	4g#')	.	.
4r	.	(8A##XL	.	(8a##XL	.	(8a##XL	.	.
.	.	8C##J	.	8c##J	.	8c##J	.	.
=274	=274	=274	=274	=274	=274	=274	=274	=274
4r	.	4D#')	.	4d#')	.	4d#')	.	i6
4DD#	.	(8B#L	.	(8b#L	.	(8b#L	.	.
.	.	8D#J	.	8d#J	.	8d#J	.	.
4r	.	4E#')	.	4e#')	.	4e#')	.	iv
4EE#	.	(8B#L	.	(8b#L	.	(8b#L	.	.
.	.	8E#J	.	8e#J	.	8e#J	.	.
=275	=275	=275	=275	=275	=275	=275	=275	=275
4r	.	4F##')	.	4f##')	.	4f##')	.	.
4FF##	.	(8B#L	.	(8B#L	.	(8b#L	.	i64
.	.	8F##J	.	8F##J	.	8f##J	.	.
4r	.	4G#')	.	4G#')	.	4g#')	.	.
4GG#	.	(8BB#L	.	(8B#L	.	(8b#L	.	iv64
.	.	8E#J	.	8e#J	.	8ee#J	.	.
=276	=276	=276	=276	=276	=276	=276	=276	=276
4r	.	4AA##X')	.	4A##X')	.	4a##X')	.	V6
4AA##X	.	(8C##L	.	(8c##L	.	(8cc##L	.	.
.	.	8F##J	.	8f##J	.	8ff##J	.	.
4r	.	4BB#')	.	4B#')	.	4b#')	.	i
4BB#	.	(8D#L	.	(8d#L	.	(8dd#L	.	.
.	.	8F##J	.	8f##J	.	8ff##J	.	.
=277	=277	=277	=277	=277	=277	=277	=277	=277
4r	.	4C##')	.	4c##')	.	4cc##')	.	V65
4C##	.	(8E#L	.	(8e#L	.	(8ee#L	.	.
.	.	8F##J)	.	8f##J)	.	8ff##J)	.	.
4D#	.	4F##	.	4f##	.	(4ff##	.	i6
*clefC4	*	*	*	*	*	*	*	*
!	!	!	!	!	!	!	!LO:DY:a	!
(4d#	p	(4d#	p	(4f##	p	4bb#	p	.
=278	=278	=278	=278	=278	=278	=278	=278	=278
1c##)	<[	1e#)	<[	1a##X)	<[	2aa##X	<	#viio65
.	.	.	.	.	.	2gg#)	[[	.
=279	=279	=279	=279	=279	=279	=279	=279	=279
2.d#	>	2.f##	>	2.b#	>	2.ff##	>	i6
(4d#	] p	[4f##	] p	(4b#	] p	(4bb#	] p	.
=280	=280	=280	=280	=280	=280	=280	=280	=280
4e#	.	1f##_	.	4cc##	.	4aa##X	.	V2
4d#	.	.	.	4b#	.	4bb#	.	.
4c##	.	.	.	4a##X	.	4ccc##	.	V43
4B#)	.	.	.	4b#	.	4ddd#	.	.
=281	=281	=281	=281	=281	=281	=281	=281	=281
[1f##	<	(4f##]	.	4a##X	.	4ccc##)	.	V
.	.	4d#	.	4ff##	.	4r	.	.
.	.	4c##	.	4ee#	.	4r	.	.
.	.	4d#)	<	4dd#)	<	(4bb#	<	.
=282	=282	=282	=282	=282	=282	=282	=282	=282
1f##_	[[	1e#	[[	(2cc##	.	2aa##X	.	#viio65
.	.	.	.	2a##X)	[[	2gg#	[[	.
=283	=283	=283	=283	=283	=283	=283	=283	=283
1f##_	p	(2d#	p	(2b#	p	2.ff##)	p	i6
.	.	4c##	.	4ee#	.	.	.	.
.	.	4B#	.	4dd#)	.	(4bb#	.	i
=284	=284	=284	=284	=284	=284	=284	=284	=284
(2.f##]	.	4F##	.	(4dd#	.	4ddd#	.	V(64)
.	.	4A##X	.	4ee#	.	4ccc##	.	V7
.	.	4B#	.	4dd#	.	4bb#	.	V(64)
4e#	.	[4f##)	.	4cc##	.	4aa##X	.	V7
=285	=285	=285	=285	=285	=285	=285	=285	=285
4d#	.	(4f##]	.	4b#	.	4bb#)	.	i6
4c##	.	4e#	.	4a##X	.	4r	.	V43
4B#)	.	4d#)	.	4b#)	.	2r	.	i
*clefF4	*	*	*	*	*	*	*	*
(4BBB# 4BB#	.	(4BB# 4B#	.	4r	.	.	.	.
=286	=286	=286	=286	=286	=286	=286	=286	=286
!	!LO:DY:a	!	!LO:DY:a	!	!	!	!	!
2AA##X (1AAA##X	.	2A##X (1AA##X	<	2r	.	2r	.	#viio7
!	!LO:DY:a	!	!LO:DY:a	!	!	!	!	!
2GG#	.	2G#	.	4r	.	4r	.	.
.	.	.	.	(4e#	<	(4e#	.	.
=287	=287	=287	=287	=287	=287	=287	=287	=287
4FF##) 4AAA##X)	]	4F##) 4AA##X)	]	2A##X	.	2a##X	.	V6
4rGG	.	4rF	.	.	.	.	.	.
4rGG	.	4rF	.	4B#)	.	4b#)	.	i
(4BBB# 4BB#	.	(4BB# 4B#	.	4r	[ p	4r	[ p	.
=288	=288	=288	=288	=288	=288	=288	=288	=288
!	!LO:DY:a	!	!	!LO:DY:a	!	!	!	!
2AA##X (1AAA##X	<	2A##X (1AA##X	<	2r	.	2r	.	#viio7
!	!LO:DY:a	!	!LO:DY:a	!	!	!	!	!
2GG#	[ >	2G#	.	4r	.	4r	.	.
.	.	.	.	(4e#	<	(4ee#	<	.
=289	=289	=289	=289	=289	=289	=289	=289	=289
4FF##) 4AAA#)	]	4F##) 4AA#)	]	2a##X	.	2aa##X	.	V6
4rGG	.	4rF	.	.	.	.	.	.
4rGG	.	4rF	.	4b#)	[ p	4bb#)	[ p	i
(4FF##	ff	(4F##	ff	(4f##	ff	(4ff##	ff	.
=290	=290	=290	=290	=290	=290	=290	=290	=290
2AA##X	.	2A##X	.	2a##X	.	2aa##X	.	V6
4BB#)	.	4B#)	.	4b#)	.	4bb#)	.	i
(4DD#	.	(4D#	.	(4d#	.	(4dd#	.	.
=291	=291	=291	=291	=291	=291	=291	=291	=291
2FF##	sf	2F##	sf	2f##	sf	2ff##	sf	V
4GG#)	.	4G#)	.	4g#)	.	4gg#)	.	VI
(4BBB#	.	(4BB#	.	(4B#	.	(4b#	.	.
=292	=292	=292	=292	=292	=292	=292	=292	=292
!	!LO:DY:a	!	!LO:DY:a	!	!	!	!	!
2DD##X	sf sf	2D##X	sf	2d##X	.	2dd##X	sf	V6/iv
4EE#)	.	4E#)	.	4e#)	.	4ee#)	.	iv
8r	.	8r	.	8r	.	8r	.	.
8AAA##X'	.	8AA##X'	.	8A##X'	.	8a##X'	.	.
=293	=293	=293	=293	=293	=293	=293	=293	=293
4CC##'	.	4C##'	.	4c##'	.	4cc##'	.	V65
8r	.	8r	.	8r	.	8r	.	.
8DD#'	.	8D#'	.	8d#'	.	8dd#'	.	.
4EE#'	.	4E#'	.	4e#'	.	4ee#'	.	.
8r	.	8r	.	8r	.	8r	.	.
8BBB#	.	8BB#	.	8B#	.	8b#	.	.
=294	=294	=294	=294	=294	=294	=294	=294	=294
4DD#	.	4D#	.	4d#	.	4dd#	.	i6
8r	.	8r	.	8r	.	8r	.	.
8EE#	.	8E#	.	8e#	.	8ee#	.	.
4FF##	.	4F##	.	4f##	.	4ff##	.	.
8r	.	8r	.	8r	.	8r	.	.
8AAA##X	.	8AA##X	.	8A##X	.	8a##X	.	.
=295	=295	=295	=295	=295	=295	=295	=295	=295
4CC##	.	4C##	.	4c##	.	4cc##	.	V65
8r	.	8r	.	8r	.	8r	.	.
8DD#	.	8D#	.	8d#	.	8dd#	.	.
4EE#	.	4E#	.	4e#	.	4ee#	.	.
8r	.	8r	.	8r	.	8r	.	.
8BBB#	.	8BB#	.	8B#	.	8b#	.	.
=296	=296	=296	=296	=296	=296	=296	=296	=296
4DD#	.	4D#	.	4d#	.	4dd#	.	i6
8r	.	8r	.	8r	.	8r	.	.
8EE#	.	8E#	.	8e#	.	8ee#	.	.
4FF##	.	4F##	.	4f##	.	4ff##	.	.
8r	.	8r	.	8r	.	8r	.	.
8AAA##X	.	8AA##X	.	8A##X	.	8a##X	.	.
=297	=297	=297	=297	=297	=297	=297	=297	=297
4CC##	.	4C##	.	4c##	.	4cc##	.	V65
8r	.	8r	.	8r	.	8r	.	.
8DD#	.	8D#	.	8d#	.	8dd#	.	.
4EE#	.	4E#	.	4e#	.	4ee#	.	.
8r	.	8r	.	8r	.	8r	.	.
8BBB#	.	8BB#	.	8B#	.	8b#	.	.
=298	=298	=298	=298	=298	=298	=298	=298	=298
4DD#	.	4D#	.	4d#	.	4dd#	.	i6
8r	.	8r	.	8r	.	8r	.	.
8EE#	.	8E#	.	8e#	.	8ee#	.	.
4FF##	.	4F##	.	4f##	.	4ff##	.	.
8r	.	8r	.	8r	.	8r	.	.
8GG#	.	8G#	.	8g#	.	8bb#	.	.
=299	=299	=299	=299	=299	=299	=299	=299	=299
4EE#	.	4G#	.	4g#	.	4cc##	.	iio65
8r	.	8r	.	8r	.	8r	.	.
8EE#	.	8E#	.	8g#	.	8bb#	.	.
4EE#	.	4c##	.	4f##	.	4cc##	.	V2
8r	.	8r	.	8r	.	8r	.	.
8EE#	.	8c##	.	8f##	.	8aa##X	.	.
=300	=300	=300	=300	=300	=300	=300	=300	=300
4DD#	.	4B#	.	4f##	.	4dd#	.	i6
8r	.	8r	.	8r	.	8r	.	.
8DD#	.	8B#	.	8f##	.	8bb#	.	.
4GG#	.	4B#	.	4d#	.	4dd#	.	VI
8r	.	8r	.	8r	.	8r	.	.
8GG#	.	8B#	.	8g#	.	8bb#	.	.
=301	=301	=301	=301	=301	=301	=301	=301	=301
4EE#	.	4c##	.	4e# 4g#	.	4cc##	.	iio65
8r	.	8r	.	8r	.	8r	.	.
8EE#	.	8c##	.	8e# 8g#	.	8bb#	.	.
4FF##	.	4c##	.	4e#	.	4cc##	.	V7
8r	.	8r	.	8r	.	8r	.	.
8FF##	.	8c##	.	8f##	.	8aa##X	.	.
=302	=302	=302	=302	=302	=302	=302	=302	=302
4BBB#	.	4d#	.	4f##	.	4bb#	.	i
!LO:TX:b:i:t=sempre	!	!LO:TX:b:i:t=sempre	!	!LO:TX:b:i:t=sempre	!	!LO:TX:b:i:t=sempre	!	!
(8BBB#L	.	(8BB#L	.	(8B#L	.	(8B#L	.	.
8DD#J	.	8D#J	.	8d#J	.	8d#J	.	.
4FF##')	.	4F##')	.	4f##')	.	4f##')	.	.
(8GG#L	f	(8G#L	f	(8g#L	f	(8g#L	f	.
8BBB#J	.	8BB#J	.	8B#J	.	8B#J	.	.
=303	=303	=303	=303	=303	=303	=303	=303	=303
4CC##')	.	4C##')	.	4c##')	.	4c##')	.	V64
4r	.	4r	.	4r	.	4r	.	.
2r	.	2r	.	2r	.	2r	.	.
=304	=304	=304	=304	=304	=304	=304	=304	=304
4r	.	4r	.	4r	.	4r	.	.
(8CC##L	.	(8C##L	.	(8c##L	.	(8c##L	.	#viio65
8EE#J	.	8E#J	.	8e#J	.	8e#J	.	.
4GG#')	.	4G#')	.	4g#')	.	4g#')	.	.
(8AA##XL	.	(8A##XL	.	(8a##XL	.	(8a##XL	.	.
8CC##J	.	8C##J	.	8c##J	.	8c##J	.	.
=305	=305	=305	=305	=305	=305	=305	=305	=305
4DD#')	.	4D#')	.	4d#')	.	4d#')	.	i6
(8DD#L	.	(8D#L	.	(8d#L	.	(8d#L	.	.
8FF##J	.	8F##J	.	8f##J	.	8f##J	.	.
4BB#')	sf	4B#')	sf	4b#')	sf	4b#')	sf	i
(4BBB#	.	[4E#	.	[4G#	.	(8e#L	.	.
.	.	.	.	.	.	8g#J	.	.
=306	=306	=306	=306	=306	=306	=306	=306	=306
4BB#)	sf	4E#]	.	4G#]	.	4cc##')	f	ii%2
(4BBB#	.	(4F##	.	(4A#	.	(8f##L	.	.
.	.	.	.	.	.	8a#J	.	.
4BB#)	sf	4F##)	.	4A#)	.	4dd##X')	f	V7/iv
(4EE#	.	[4G#	.	[4B#	.	(8g#L	.	.
.	.	.	.	.	.	8b#J	.	.
=307	=307	=307	=307	=307	=307	=307	=307	=307
4E#)	f	4G#]	.	4B#]	.	4ee#')	f	iv
(4EE#	.	(4B#	.	(4g#	.	(8g#L	.	.
.	.	.	.	.	.	8b#J	.	.
4E#)	f	4B#)	.	4g#)	.	4gg#')	f	.
(4FF##	.	[4B#	.	[4d#	.	(8d#L	.	V(64)
.	.	.	.	.	.	8b#J	.	.
=308	=308	=308	=308	=308	=308	=308	=308	=308
4F##)	f	4B#]	.	4d#]	.	4ff##')	f	.
(4FF##	.	(4A##X	.	(4c##	.	(8f##L	.	.
.	.	.	.	.	.	8cc##J	.	.
4F##)	f	4A##)	.	4c##)	.	4aa##X')	f	V
(4BBB#	.	[4B#	.	[4d#	.	(8f##L	.	i
.	.	.	.	.	.	8dd#J	.	.
=309	=309	=309	=309	=309	=309	=309	=309	=309
4BB#)	.	4B#]	.	4d#]	.	4bb#')	.	.
(4B#	.	(4D#	.	(4F##	.	(8d#L	.	.
.	.	.	.	.	.	8f##J	.	.
4BB#)	.	4D#)	.	4F##)	.	4b#')	.	.
(4B#	.	[4E#	.	[4G#	.	(8e#L	.	ii%2
.	.	.	.	.	.	8g#J	.	.
=310	=310	=310	=310	=310	=310	=310	=310	=310
4BB#)	.	4E#]	.	4G#]	.	4cc##')	.	.
(4BB#	.	(4F##	.	(4A#	.	(8f##L	.	.
.	.	.	.	.	.	8a#J	.	.
4BBB#)	.	4F##)	.	4A#)	.	4dd##X')	.	V7/iv
(4BB#	.	[4G#	.	[4B#	.	(8g#L	.	iv
.	.	.	.	.	.	8b#J	.	.
=311	=311	=311	=311	=311	=311	=311	=311	=311
4EE#)	.	4G#]	.	4B#]	.	4ee#')	.	.
(4G#	.	(4B#	.	(4g#	.	(8e#L	.	.
.	.	.	.	.	.	8b#J	.	.
4E#)	.	4B#)	.	4g#)	.	4gg#')	.	.
(4F##	.	[4B#	.	[4d#	.	(8d#L	.	V(64)
.	.	.	.	.	.	8b#J	.	.
=312	=312	=312	=312	=312	=312	=312	=312	=312
4FF##)	.	4B#]	.	4d#]	.	4ff##')	.	.
(4F##	.	(4c##	.	(4a##X	.	(8f##L	.	V
.	.	.	.	.	.	8cc##J	.	.
4FF##)	.	4c##)	.	4a##)	.	4aa##X')	.	.
(4B#	.	[4B#	.	[4b#	.	4dd#'	.	.
=313	=313	=313	=313	=313	=313	=313	=313	=313
[1BB#)	ff	4B#]	ff	4b#]	ff	[1dd# [1ddd#	ff	i
.	.	4r	.	4r	.	.	.	.
.	.	4B#	.	2r	.	.	.	.
.	.	8r	.	.	.	.	.	.
.	.	8c##	.	.	.	.	.	.
=314	=314	=314	=314	=314	=314	=314	=314	=314
1BB#]	.	4d#	.	1r	.	1dd#] 1ddd#]	.	.
.	.	8r	.	.	.	.	.	.
.	.	8e#	.	.	.	.	.	.
.	.	4f##	.	.	.	.	.	.
.	.	8r	.	.	.	.	.	.
.	.	8g#	.	.	.	.	.	.
=315	=315	=315	=315	=315	=315	=315	=315	=315
1AA#	ff	4a#	.	2r	.	1cc## 1ccc##	ff	VII
.	.	4r	.	.	.	.	.	.
.	.	2r	.	4b#	.	.	.	.
.	.	.	.	8r	.	.	.	.
.	.	.	.	8cc##	.	.	.	.
=316	=316	=316	=316	=316	=316	=316	=316	=316
1GG#	ff	1r	.	4dd#	.	1b# 1bb#	ff	VI
.	.	.	.	8r	.	.	.	.
.	.	.	.	8ee#	.	.	.	.
.	.	.	.	4ff##	.	.	.	.
.	.	.	.	8r	.	.	.	.
.	.	.	.	8gg#	.	.	.	.
=317	=317	=317	=317	=317	=317	=317	=317	=317
1FF##	ff	2r	.	4aa#	.	1a# 1aa#	ff	III6
.	.	.	.	4r	.	.	.	.
.	.	4G#	.	4g#	.	.	.	.
.	.	8r	.	8r	.	.	.	.
.	.	8A#	.	8a#	.	.	.	.
=318	=318	=318	=318	=318	=318	=318	=318	=318
1EE#	ff	4B#	.	4b#	.	1g# 1gg#	ff	iv
.	.	8r	.	8r	.	.	.	.
.	.	8c##	.	8cc##	.	.	.	.
.	.	4d#	.	4dd#	.	.	.	.
.	.	8r	.	8r	.	.	.	.
.	.	8e#	.	8ee#	.	.	.	.
=319	=319	=319	=319	=319	=319	=319	=319	=319
4DD#	.	4f##	.	4ff##	.	4ff##	.	i6
4r	.	8r	.	8r	.	4r	.	.
.	.	8B#	.	8b#	.	.	.	.
4EE#	.	4C##	.	4c##	.	4gg#	.	iio6
4r	.	8r	.	8r	.	4r	.	.
.	.	8B#	.	8b#	.	.	.	.
=320	=320	=320	=320	=320	=320	=320	=320	=320
4FF##	.	4B#	.	4b#	.	4dd#	.	V(64)
4r	.	8r	.	8r	.	4r	.	.
.	.	8BB#	.	8B#	.	.	.	.
4FF##	.	4AA##X	.	4A##X	.	4cc##	.	V
4r	.	8r	.	4r	.	4r	.	.
.	.	8A##X	.	.	.	.	.	.
=321	=321	=321	=321	=321	=321	=321	=321	=321
[1B#	ff	[1d#	ff	1r	.	2r	.	i
.	.	.	.	.	.	4dd#	.	.
.	.	.	.	.	.	8r	.	.
.	.	.	.	.	.	8ee#	.	.
=322	=322	=322	=322	=322	=322	=322	=322	=322
1B#]	.	1d#]	.	1r	.	4ff##	.	i
.	.	.	.	.	.	8r	.	.
.	.	.	.	.	.	8gg#	.	.
.	.	.	.	.	.	4aa#	.	.
.	.	.	.	.	.	8r	.	.
.	.	.	.	.	.	8bb#	.	.
=323	=323	=323	=323	=323	=323	=323	=323	=323
1A#	f	1c##	f	2r	.	4ccc##	.	VII
.	.	.	.	.	.	4r	.	.
.	.	.	.	4B#	.	4g#	.	.
.	.	.	.	8r	.	8r	.	.
.	.	.	.	8c##	.	8f##	.	.
=324	=324	=324	=324	=324	=324	=324	=324	=324
1G#	f	1B#	f	4d#	.	4e#	.	iv65
.	.	.	.	8r	.	8r	.	.
.	.	.	.	8e#	.	8d#	.	.
.	.	.	.	4f##	.	4c##	.	.
.	.	.	.	8r	.	8r	.	.
.	.	.	.	8g#	.	8B#	.	.
=325	=325	=325	=325	=325	=325	=325	=325	=325
1F##	f	1A#	f	4a#	.	4F##'	.	III6
.	.	.	.	4r	.	4r	.	.
.	.	.	.	4g#	.	4gg#	.	.
.	.	.	.	8r	.	8r	.	.
.	.	.	.	8a#	.	8aa#	.	.
=326	=326	=326	=326	=326	=326	=326	=326	=326
1E#	f	1G#	f	4b#	.	4bb#	.	iv
.	.	.	.	8r	.	8r	.	.
.	.	.	.	8cc##	.	8ccc##	.	.
.	.	.	.	4dd#	.	4ddd#	.	.
.	.	.	.	8r	.	8r	.	.
.	.	.	.	8ee#	.	8eee#	.	.
=327	=327	=327	=327	=327	=327	=327	=327	=327
4D#	.	4F##	.	4ff##	.	4fff##	.	III
4r	.	8r	.	8r	.	4r	.	.
.	.	8B#	.	8b#	.	.	.	.
4EE#	.	4C##	.	4c##	.	4ggg#	.	iio6
4r	.	8r	.	8r	.	4r	.	.
.	.	8B#	.	8b#	.	.	.	.
=328	=328	=328	=328	=328	=328	=328	=328	=328
!LO:TX:b:i:t=dim.	!	!LO:TX:b:i:t=dim.	!	!LO:TX:b:i:t=dim.	!	!LO:TX:b:i:t=dim.	!	!
4FF##	.	4B#	.	4b#	.	4dd#	.	V(64)
8r	.	8r	.	8r	.	4r	.	.
8F##	.	8d#	.	8B#	.	.	.	.
4E#	.	4g#	.	4G#	.	4cc#	.	.bII6
8r	.	8r	.	8r	.	4r	.	.
8EE#	.	8c#	.	8G#	.	.	.	.
=329	=329	=329	=329	=329	=329	=329	=329	=329
8CC#L	pp	8C#L	pp	8c#L	pp	8cc#L	pp	.bII
8CC#	.	8C#	.	8c#	.	8c#	.	.
8CC#	.	8C#	.	8c#	.	8d#	.	.
8CC#J	.	8C#J	.	8c#J	.	8e#J	.	.
8CC#L	.	8C#L	.	8c#L	.	8f#L	.	.
8CC#	.	8C#	.	8c#	.	8g#	.	.
8CC#	.	8C#	.	8c#	.	8a#	.	.
8CC#J	.	8C#J	.	8c#J	.	8b#J	.	.
=330	=330	=330	=330	=330	=330	=330	=330	=330
8CC#L	.	8C#L	.	8c#L	.	8cc#L	.	.
8CC#	.	8C#	.	8c#	.	8dd#	.	.
8CC#	.	8C#	.	8c#	.	8ee#	.	.
8CC#J	.	8C#J	.	8c#J	.	8ff#J	.	.
8CC#L	.	8C#L	.	8c#L	.	8gg#L	.	.
8CC#	.	8C#	.	8c#	.	8aa#	.	.
8CC#	.	8C#	.	8c#	.	8bb#	.	.
8CC#J	.	8C#J	.	8c#J	.	8ccc#J	.	.
=331	=331	=331	=331	=331	=331	=331	=331	=331
!LO:TX:b:i:t=cresc.	!	!LO:TX:b:i:t=cresc.	!	!LO:TX:b:i:t=cresc.	!	!LO:TX:b:i:t=cresc.	!	!
4CC#'	.	4C#'	.	4c#'	.	4ccc#'	.	.
4AAA##X'	.	4AA##X'	.	4A##X'	.	4aa##X'	.	V6
4BBB#'	.	4BB#'	.	4B#'	.	4bb#'	.	i
4FF##'	.	4F##'	.	4A#'	.	4ccc##X'	.	V43
=332	=332	=332	=332	=332	=332	=332	=332	=332
4BB#'	f	4B#'	f	4B#'	f	4ddd#'	f	i
4FF##'	.	4F##'	.	4B#'	.	4fff##'	.	i64
!	!LO:DY:a	!	!	!	!	!	!	!
4BBB#'	sf sf	4BB#'	.	4B#'	sf	4bbb#'	sf	i\\
4CC#	pp	4C#	pp	4c#	pp	4c#	pp	.bII
=333	=333	=333	=333	=333	=333	=333	=333	=333
8CC#L	.	8C#L	.	8c#L	.	8cc#L	.	.
8CC#	.	8C#	.	8c#	.	8c#	.	.
8CC#	.	8C#	.	8c#	.	8d#	.	.
8CC#J	.	8C#J	.	8c#J	.	8e#J	.	.
8CC#L	.	8C#L	.	8c#L	.	8f#L	.	.
8CC#	.	8C#	.	8c#	.	8g#	.	.
8CC#	.	8C#	.	8c#	.	8a#	.	.
8CC#J	.	8C#J	.	8c#J	.	8b#J	.	.
=334	=334	=334	=334	=334	=334	=334	=334	=334
8CC#L	.	8C#L	.	8c#L	.	8cc#L	.	.
8CC#	.	8C#	.	8c#	.	8dd#	.	.
8CC#	.	8C#	.	8c#	.	8ee#	.	.
8CC#J	.	8C#J	.	8c#J	.	8ff#J	.	.
8CC#L	.	8C#L	.	8c#L	.	8gg#L	.	.
8CC#	.	8C#	.	8c#	.	8aa#	.	.
8CC#	.	8C#	.	8c#	.	8bb#	.	.
8CC#J	.	8C#J	.	8c#J	.	8ccc#J	.	.
=335	=335	=335	=335	=335	=335	=335	=335	=335
!LO:TX:b:i:t=cresc.	!	!LO:TX:b:i:t=cresc.	!	!LO:TX:b:i:t=cresc.	!	!LO:TX:b:i:t=cresc.	!	!
4CC#'	.	4C#'	.	4c#'	.	4ccc#'	.	.
4AAA##X'	.	4AA##X'	.	4A##X'	.	4aa##X'	.	V6
4BBB#'	.	4BB#'	.	4B#'	.	4bb#'	.	i
4FF##'	.	4F##'	.	4A##'	.	4ccc##X'	.	V43
=336	=336	=336	=336	=336	=336	=336	=336	=336
4BB#'	f	4F##'	f	4B#'	f	4ddd#'	f	i
4FF##'	.	4F##'	.	4B#'	.	4fff##'	.	i64
!	!LO:DY:a	!	!	!	!	!	!	!
4BBB#'	sf sf	4BB#'	.	(8B#L	sf	4bbb#'	sf	i
.	.	.	.	8c##X	.	.	.	.
4BB#	.	4F##	.	8d#	.	4b#'	.	.
.	.	.	.	8c##J)	.	.	.	.
=337	=337	=337	=337	=337	=337	=337	=337	=337
4BB#	ff	4F##	ff	(8d#L	ff	4b#	ff	.
.	.	.	.	8e#	.	.	.	.
4r	.	4r	.	8d#	.	8r	.	.
.	.	.	.	8c##J	.	8f##	.	.
4r	.	4r	.	8d#L	.	4dd#	.	.
.	.	.	.	8B#	.	.	.	.
8r	.	8r	.	8c##	.	8r	.	.
8BB#	.	8F##	.	8B#J)	.	8dd#	.	.
=338	=338	=338	=338	=338	=338	=338	=338	=338
4AA##X	sf	4F##	sf	(8e#L	sf	4cc##	sf	V65
.	.	.	.	8f##	.	.	.	.
4r	.	4r	.	8e#	.	8r	.	.
.	.	.	.	8d#J	.	8f##	.	.
4r	.	4r	.	8e#L	.	4ff##	.	.
.	.	.	.	8c##	.	.	.	.
8r	.	8r	.	8d#	.	8r	.	.
8AA##	.	8F##	.	8c##J)	.	8ff##	.	.
=339	=339	=339	=339	=339	=339	=339	=339	=339
4BB#	sf	4F##	sf	(8d#L	sf	4ff##	sf	i
.	.	.	.	8e#	.	.	.	.
4r	.	4r	.	8d#	.	8r	.	.
.	.	.	.	8e#J	.	8dd#	.	.
4r	.	4r	.	8d#L	.	4bb#	.	.
.	.	.	.	8c##	.	.	.	.
8r	.	8r	.	8d#	.	8r	.	.
8BB#	.	8F##	.	8B#J)	.	8bb#	.	.
=340	=340	=340	=340	=340	=340	=340	=340	=340
4FF##	sf	4F##	sf	(8e#L	sf	4aa##X	sf	V7
.	.	.	.	8f##	.	.	.	.
4r	.	4r	.	8e#	.	8r	.	.
.	.	.	.	8d#J	.	8aa##	.	.
4r	.	4r	.	8e#L	.	4aa##	.	.
.	.	.	.	8d#	.	.	.	.
8r	.	8r	.	8e#	.	8r	.	.
8FF##	.	8F##	.	8c##J)	.	8ccc##	.	.
=341	=341	=341	=341	=341	=341	=341	=341	=341
4BB#	sf	(8d#L	sf	(8dd#L	sf	4bb#	sf	i
.	.	8e#	.	8ee#	.	.	.	.
8r	.	8d#	.	8dd#	.	8r	.	.
8BB#	.	8c##J	.	8cc##J	.	8f##	.	.
4BB#	.	8d#L	.	8dd#L	.	4dd#	.	.
.	.	8B#	.	8b#	.	.	.	.
8r	.	8c##	.	8cc##	.	8r	.	.
8BB#	.	8B#J)	.	8b#J)	.	8dd#	.	.
=342	=342	=342	=342	=342	=342	=342	=342	=342
4AA##X	f	(8e#L	f	(8ee#L	f	4cc##	f	V65
.	.	8f##	.	8ff##	.	.	.	.
8r	.	8e#	.	8ee#	.	8r	.	.
8AA##	.	8d#J	.	8dd#J	.	8f##	.	.
4AA##	.	8e#L	.	8ee#L	.	4ff##	.	.
.	.	8c##	.	8cc##	.	.	.	.
8r	.	8d#	.	8dd#	.	8r	.	.
8AA##	.	8c##J)	.	8cc##J)	.	8ff##	.	.
=343	=343	=343	=343	=343	=343	=343	=343	=343
4BB#	f	(8d#L	f	(8dd#L	f	4ff##	f	i
.	.	8e#	.	8ee#	.	.	.	.
8r	.	8d#	.	8dd#	.	8r	.	.
8BB#	.	8e#J	.	8ee#J	.	8dd#	.	.
4BB#	.	8d#L	.	8dd#L	.	4bb#	.	.
.	.	8c##	.	8cc##	.	.	.	.
8r	.	8d#	.	8dd#	.	8r	.	.
8BB#	.	8d#J)	.	8b#J)	.	8bb#	.	.
=344	=344	=344	=344	=344	=344	=344	=344	=344
4FF##	f	(8e#L	f	(8ee#L	f	4aa##X	f	V7
.	.	8f##	.	8ff##	.	.	.	.
8r	.	8e#	.	8ee#	.	8r	.	.
8FF##	.	8d#J	.	8dd#J	.	8aa##	.	.
4FF##	.	8e#L	.	8ee#L	.	4aa##	.	.
.	.	8d#	.	8dd#	.	.	.	.
8r	.	8e#	.	8ee#	.	8r	.	.
8FF##	.	8e#J)	.	8cc##J)	.	8ccc##	.	.
=345	=345	=345	=345	=345	=345	=345	=345	=345
4BB#	f	(8d#L	f	(8dd#L	f	4bb#	f	i
.	.	8e#	.	8cc##	.	.	.	.
8r	.	8d#	.	8dd#	.	8r	.	.
8BB#	.	8d#J)	.	8b#J	.	8bb#	.	.
4FF##	.	(8e#L	.	8ee#L	.	4aa##X	.	V7
.	.	8f##	.	8dd#	.	.	.	.
8r	.	8e#	.	8ee#	.	8r	.	.
8FF##	.	8e#J)	.	8cc##J)	.	8ccc##	.	.
=346	=346	=346	=346	=346	=346	=346	=346	=346
4BB#	f	(8d#L	f	(8dd#L	f	4bb#	f	i
.	.	8e#	.	8cc##	.	.	.	.
8r	.	8d#	.	8dd#	.	8r	.	.
8BB#	.	8d#J)	.	8b#J	.	8bb#	.	.
4FF##	.	(8e#L	.	8ee#L	.	4aa##X	.	V7
.	.	8f##	.	8dd#	.	.	.	.
8r	.	8e#	.	8ee#	.	8r	.	.
8FF##	.	8e#J)	.	8cc##J)	.	8ccc##	.	.
=347	=347	=347	=347	=347	=347	=347	=347	=347
4FF##'	.	4e#'	.	4cc##'	.	4ccc##'	.	.
!	!	!	!	!	!LO:DY:a	!	!	!
(8AAA##XL	p	(8AA##XL	p	(8A##XL	p p	(8A##XL	.	.
8CC##J	.	8C##J	.	8c##J	.	8c##J	.	.
4EE#')	.	4E#')	.	4e#')	.	4e#')	.	V65(+9)
8GG#L	.	8G#L	.	8g#L	.	8g#L	.	.
8AAA##J	.	8AA##J	.	8A##J	.	8A##J	.	.
=348	=348	=348	=348	=348	=348	=348	=348	=348
1r	.	1r	.	1r	.	1r	.	.
=349	=349	=349	=349	=349	=349	=349	=349	=349
4r	.	4r	.	4r	.	4r	.	i
!	!	!	!	!	!	!LO:TX:a:i:t=Ritmo di due battute	!	!
(8BBB#L	p	(8BB#L	p	(8B#L	p	(8B#L	.	.
8DD#J	.	8D#J	.	8d#J	.	8d#J	p	.
4FF##')	.	4F##')	.	4f##')	.	4f##')	.	.
(8BB#L	.	(4B#	.	(8b#L	.	(4b#	.	.
8BBB#J)	.	.	.	8B#J)	.	.	.	.
=350	=350	=350	=350	=350	=350	=350	=350	=350
4r	.	2A##X	.	2r	.	2a##X	.	V65(+9)
(8BBB#L	.	.	.	.	.	.	.	.
8EE#J	.	.	.	.	.	.	.	.
4GG#)	.	2G#	.	4r	.	2g#	.	.
4r	.	.	.	(8b#L	.	.	.	.
.	.	.	.	8B#J)	.	.	.	.
=351	=351	=351	=351	=351	=351	=351	=351	=351
4r	.	2.F##)	.	2r	.	2.f##)	.	V7/IV
(8BBB#L	.	.	.	.	.	.	.	.
8DD##XJ	.	.	.	.	.	.	.	.
4FF##)	.	.	.	4r	.	.	.	.
4r	.	(4A#	.	(8b#L	.	(4a#	.	.
.	.	.	.	8B#J)	.	.	.	.
=352	=352	=352	=352	=352	=352	=352	=352	=352
4r	.	2G##X	.	2r	.	2g##X	.	IV6
(8BBB#L	.	.	.	.	.	.	.	.
8EE#J	.	.	.	.	.	.	.	.
4GG##X)	.	2F#	.	4r	.	2f#	.	IV6(b2)
4r	.	.	.	(8b#L	.	.	.	.
.	.	.	.	8B#J)	.	.	.	.
=353	=353	=353	=353	=353	=353	=353	=353	=353
4r	.	2.E#)	.	2r	.	2.e#)	.	iv6
(8BBB#L	.	.	.	.	.	.	.	.
8EE#J	.	.	.	.	.	.	.	.
4GG#)	.	.	.	4r	.	.	.	.
4r	.	(4g#	.	(8b#L	.	(4gg#	.	.
.	.	.	.	8B#J)	.	.	.	.
=354	=354	=354	=354	=354	=354	=354	=354	=354
4r	.	2f##	.	2r	.	2ff##	.	V/iv
(8BBB#L	.	.	.	.	.	.	.	.
8DD##XJ	.	.	.	.	.	.	.	.
4FF##)	.	2e#	.	4r	.	2ee#	.	.
4r	.	.	.	(8b#L	.	.	.	.
.	.	.	.	8B#J)	.	.	.	.
=355	=355	=355	=355	=355	=355	=355	=355	=355
4r	.	2d##X	.	2r	.	2dd##X	.	.
(8BBB#L	.	.	.	.	.	.	.	.
8DD##XJ	.	.	.	.	.	.	.	.
4FF##)	.	2c#	.	4r	.	2cc#	.	.
4r	.	.	.	(8b#L	.	.	.	.
.	.	.	.	8B#J)	.	.	.	.
=356	=356	=356	=356	=356	=356	=356	=356	=356
4r	.	2B#	.	2r	.	2b#	.	.
(8BBB#L	.	.	.	.	.	.	.	.
8DD##XJ	.	.	.	.	.	.	.	.
4FF##)	.	2A#	.	4r	.	2a#	.	.
4r	.	.	.	(8b#L	.	.	.	.
.	.	.	.	8B#J)	.	.	.	.
=357	=357	=357	=357	=357	=357	=357	=357	=357
4r	.	2G#	.	2r	.	2g#	.	iv6
(8BBB#L	.	.	.	.	.	.	.	.
8EE#J	.	.	.	.	.	.	.	.
4GG#)	.	2F##	.	4r	.	2f##	.	iv6(7)
4r	.	.	.	(8b#L	.	.	.	.
.	.	.	.	8B#J)	.	.	.	.
=358	=358	=358	=358	=358	=358	=358	=358	=358
4r	.	2.E#)	.	2r	.	2.e#)	.	iv6
(8BBB#L	.	.	.	.	.	.	.	.
8EE#J	.	.	.	.	.	.	.	.
4GG#)	.	.	.	4r	.	.	.	.
4r	.	(4g#	.	(8b#L	.	(4gg#	.	.
.	.	.	.	8B#J)	.	.	.	.
=359	=359	=359	=359	=359	=359	=359	=359	=359
4r	.	2f##	.	2r	.	2ff##	.	V/iv
(8BBB#L	.	.	.	.	.	.	.	.
8DD##XJ	.	.	.	.	.	.	.	.
4FF##)	.	2e#	.	4r	.	2ee#	.	.
4r	.	.	.	(8b#L	.	.	.	.
.	.	.	.	8B#J)	.	.	.	.
=360	=360	=360	=360	=360	=360	=360	=360	=360
4r	.	2e	.	2r	.	2dd##X	.	.
(8BBB#L	.	.	.	.	.	.	.	.
8DD##XJ	.	.	.	.	.	.	.	.
4FF##)	.	2c#	.	4r	.	2cc#	.	.
4r	.	.	.	(8b#L	.	.	.	.
.	.	.	.	8B#J)	.	.	.	.
=361	=361	=361	=361	=361	=361	=361	=361	=361
4r	.	2B#	.	2r	.	2b#	.	.
(8BBB#L	.	.	.	.	.	.	.	.
8EE#J	.	.	.	.	.	.	.	.
4GG#)	.	2A#)	.	4r	.	2a#)	.	.
4r	.	.	.	(8b#L	.	.	.	.
.	.	.	.	8B#J)	.	.	.	.
=362	=362	=362	=362	=362	=362	=362	=362	=362
4r	.	2E# 2G#	.	2r	.	2g#	.	.bII
(8CC#L	.	.	.	.	.	.	.	.
8EE#J	.	.	.	.	.	.	.	.
4GG#)	.	2E# 2G#	.	4r	.	2g#	.	.
4r	.	.	.	(8cc#L	.	.	.	.
.	.	.	.	8c#J)	.	.	.	.
=363	=363	=363	=363	=363	=363	=363	=363	=363
4r	.	[1E# [1G#	.	[1A##X [1c##X	.	[1e# [1g#	.	#viio7
(8AAA##XL	<	.	.	.	.	.	.	.
8CC##XJ	.	.	.	.	.	.	.	.
4EE#')	[	.	.	.	.	.	.	.
(8GG#L	>	.	.	.	.	.	.	.
8AAA##J)	]]	.	.	.	.	.	.	.
=364	=364	=364	=364	=364	=364	=364	=364	=364
1r	.	1E#] 1G#]	.	1A##] 1c##]	.	1e#] 1g#]	.	.
=365	=365	=365	=365	=365	=365	=365	=365	=365
4r	.	[1E# [1G#	.	[1A##X [1c##	.	[1e# [1g#	.	.
(8AAA##XL	.	.	.	.	.	.	.	.
8CC##J	.	.	.	.	.	.	.	.
4EE#')	.	.	.	.	.	.	.	.
(8GG#L	.	.	.	.	.	.	.	.
8AAA##J)	.	.	.	.	.	.	.	.
=366	=366	=366	=366	=366	=366	=366	=366	=366
1r	.	1E#] 1G#]	.	1A##] 1c##]	.	1e#] 1g#]	.	.
=367	=367	=367	=367	=367	=367	=367	=367	=367
4r	.	(2D##X	pp	(4c#	pp	(2f##	pp	I.I6
(8AA#L	pp	.	.	(4B#)	.	.	.	.
8BB#J	.	.	.	.	.	.	.	.
4GG#)	.	4E#)	.	4B#)	.	4e#)	.	iv6
8r	.	4r	.	8r	.	8r	.	.
8FF##	.	.	.	8e	.	8f##	.	.
=368	=368	=368	=368	=368	=368	=368	=368	=368
4EE#	.	4G#	.	4e#X	.	4g#	.	iv
*clefC4	*	*	*	*	*	*	*	*
8r	.	8r	.	8r	.	8r	.	.
8B#	.	8F##	.	8A#	.	8a#	.	.
4B#	.	4E#	.	4G#	.	4b#	.	.
8r	.	8r	.	8r	.	8r	.	.
8B#	.	8E	.	8F##	.	8cc#	.	.
=369	=369	=369	=369	=369	=369	=369	=369	=369
1B#	<	4E#X	.	4G#	.	4b#	.	.
.	.	4r	.	4r	.	4r	.	.
.	.	4B#	.	2r	.	2r	.	.
.	.	8r	.	.	.	.	.	.
.	.	8A#	.	.	.	.	.	.
=370	=370	=370	=370	=370	=370	=370	=370	=370
1e#	[[	4G#	.	1r	.	1r	.	iv6
.	.	8r	.	.	.	.	.	.
.	.	8F##	.	.	.	.	.	.
.	.	4G#	.	.	.	.	.	.
.	.	8r	.	.	.	.	.	.
.	.	8E#	.	.	.	.	.	.
=371	=371	=371	=371	=371	=371	=371	=371	=371
4e	.	1BB#	<	2r	.	1r	.	I
*clefF4	*	*	*	*	*	*	*	*
(8BBB#L	.	.	.	.	.	.	.	.
8DD##XJ	.	.	.	.	.	.	.	.
4FF##')	.	.	.	4b#	.	.	.	.
(8BBB#L	.	.	.	8r	.	.	.	.
8EE#XJ	.	.	.	8a#	.	.	.	.
=372	=372	=372	=372	=372	=372	=372	=372	=372
4GG#')	.	1E#	[[	4g#	.	4r	.	iv6
4r	.	.	.	8r	.	(8e#L	.	.
.	.	.	.	8f##	.	8a#J	.	.
2r	.	.	.	4g#	.	4b#')	.	iv
.	.	.	.	8r	.	(8B#L	.	.
.	.	.	.	8e#	.	8g#J	.	.
=373	=373	=373	=373	=373	=373	=373	=373	=373
4r	.	4E	.	1b#	<	4f##')	.	I6
(8BBB#L	.	4r	.	.	.	4r	.	.
8EEJ	.	.	.	.	.	.	.	.
4FF##')	.	2r	.	.	.	4bb#	.	.
(8BBB#L	.	.	.	.	.	8r	.	.
8EE#XJ	.	.	.	.	.	8aa#	.	.
=374	=374	=374	=374	=374	=374	=374	=374	=374
4GG#')	.	4r	.	1ee#	[[	4gg#	.	iv6
4r	.	(8E#XL	.	.	.	8r	.	.
.	.	8A#J	.	.	.	8ff##	.	.
2r	.	4B#')	.	.	.	4gg#	.	.
.	.	(8E#L	.	.	.	8r	.	.
.	.	8G#J	.	.	.	8ee#	.	.
=375	=375	=375	=375	=375	=375	=375	=375	=375
2r	.	4F##')	.	4dd##X	.	1b#	<	I64
.	.	4r	.	(8B#L	.	.	.	.
.	.	.	.	8d##XJ	.	.	.	.
4BB#	.	4r	.	4f##')	.	.	.	.
8r	.	(8BB#L	.	4r	.	.	.	.
8AA#	.	8E#J	.	.	.	.	.	.
=376	=376	=376	=376	=376	=376	=376	=376	=376
4GG#	.	4G#')	.	4r	.	1ee#	[[	iv6
8r	.	4r	.	(8e#L	.	.	.	.
8FF##	.	.	.	8a#J	.	.	.	.
4GG#	.	4r	.	4b#')	.	.	.	.
8r	.	(8BB#L	.	4r	.	.	.	.
8EE#	.	8G#J	.	.	.	.	.	.
=377	=377	=377	=377	=377	=377	=377	=377	=377
!	!	!	!	!	!	!LO:TX:b:i:t=semplice espress.	!	!
!	!	!	!	!	!	!LO:TX:a:i:t=Poco adagio.	!	!
(1BBB#	.	4F##')	.	2r	.	4dd##X	.	I
.	.	(8BB#L	.	.	.	4r	.	.
.	.	8D##XJ	.	.	.	.	.	.
.	.	4F##')	.	4r	.	4bb#	.	.
.	.	4r	.	(8B#L	.	8r	.	.
.	.	.	.	8e#J	.	8aa#	.	.
=378	=378	=378	=378	=378	=378	=378	=378	=378
!LO:TX:b:i:t=espress.	!	!	!	!	!	!	!	!
1EE#	.	4r	.	4g#')	.	4gg#	.	iv
.	.	(8E#L	.	4r	.	8r	.	.
.	.	8A#J	.	.	.	8ff##	.	.
.	.	4B#')	.	4r	.	4gg#	.	.
.	.	4r	.	(8B#L	.	8r	.	.
.	.	.	.	8g#J	.	8ee#	.	.
=379	=379	=379	=379	=379	=379	=379	=379	=379
4DD##X)	.	(1B#	.	4f##')	.	4ff##	.	I6
(8BBB#L	.	.	.	4r	.	4r	.	.
8DD##J	.	.	.	.	.	.	.	.
!	!	!	!	!LO:TX:a:i:t=semplice espress.	!	!	!	!
4FF##')	.	.	.	4b#	.	2r	.	.
(8BBB#L	.	.	.	8r	.	.	.	.
8EE#J	.	.	.	8a#	.	.	.	.
=380	=380	=380	=380	=380	=380	=380	=380	=380
4GG#')	.	1e#	.	4g#	.	4r	.	iv6
4r	.	.	.	8r	.	(8e#L	.	.
.	.	.	.	8f##	.	8a#J	.	.
2r	.	.	.	4g#	.	4b#')	.	iv
.	.	.	.	8r	.	(8e#L	.	.
.	.	.	.	8e#	.	8g#J	.	.
=381	=381	=381	=381	=381	=381	=381	=381	=381
1BBB#	.	4d##X)	.	4f##	.	4b#')	.	I
.	.	4r	.	(8B#L	.	4r	.	.
.	.	.	.	8d##XJ	.	.	.	.
.	.	4r	.	4f##')	.	4bb#	.	.
.	.	(8BB#L	.	4r	.	8r	.	.
.	.	8F##J	.	.	.	8aa#	.	.
=382	=382	=382	=382	=382	=382	=382	=382	=382
1EE#	.	4G#')	.	4r	.	4gg#	.	iv
.	.	4r	.	(8e#L	.	8r	.	.
.	.	.	.	8a#J	.	8ff##	.	.
.	.	4r	.	4b#')	.	4gg#	.	.
.	.	8BB#L	.	4r	.	8r	.	.
.	.	8G#J	.	.	.	8ee#	.	.
=383	=383	=383	=383	=383	=383	=383	=383	=383
!	!	!	!	!	!	!LO:TX:b:i:t=cresc.	!	!
!LO:TX:b:i:t=cresc.	!	!LO:TX:b:i:t=cresc.	!	!	!	!LO:TX:a:B:t=Tempo I.	!	!
4BBB#'	.	[1BB# [1F##	.	1r	.	[1b# [1ff##	.	I
8r	.	.	.	.	.	.	.	.
8AA##X'	.	.	.	.	.	.	.	.
4BB#'	.	.	.	.	.	.	.	.
8r	.	.	.	.	.	.	.	.
8C##'	.	.	.	.	.	.	.	.
=384	=384	=384	=384	=384	=384	=384	=384	=384
!LO:TX:b:i:t=cresc.	!	!LO:TX:b:i:t=cresc.	!	!	!	!LO:TX:b:i:t=cresc.	!	!
4D##X'	.	1BB#_ 1F##_	.	1r	.	1b#_ 1ff##_	.	I64
8r	.	.	.	.	.	.	.	.
8E#'	.	.	.	.	.	.	.	.
4F##'	.	.	.	.	.	.	.	.
8r	.	.	.	.	.	.	.	.
8A##X'	.	.	.	.	.	.	.	.
=385	=385	=385	=385	=385	=385	=385	=385	=385
!	!	!	!	!LO:TX:b:i:t=cresc.	!	!	!	!
4B#'	.	1BB#_ 1F##_	.	4d##X'	.	1b#_ 1ff##_	.	I
4r	.	.	.	8r	.	.	.	.
.	.	.	.	8e#'	.	.	.	.
2r	.	.	.	4f##'	.	.	.	.
.	.	.	.	8r	.	.	.	.
.	.	.	.	8a##X'	.	.	.	.
=386	=386	=386	=386	=386	=386	=386	=386	=386
4r	.	4BB#] 4F##]	.	4b#'	.	4b#] 4ff##]	.	.
8r	ff	8r	ff	8r	ff	8r	ff	.
8BBB#	.	8B#	.	8b#	.	8bb#	.	.
4DD##X	.	4d##X	.	4dd##X	.	4ddd##X	.	.
8r	.	8r	.	8r	.	8r	.	.
8FF##	.	8f##	.	8ff##	.	8fff##	.	.
=387	=387	=387	=387	=387	=387	=387	=387	=387
4BB#	.	4b#	.	4bb#	.	4bbb#	.	I\\
4r	.	4r	.	4r	.	4r	.	.
4BBB#'	.	4BB#' 4F## 4d##X 4b#	.	4F##' 4d##X 4b#	.	4B#' 4f## 4dd##X 4bb#	.	.
4BBB#'	.	4BB#' 4F## 4d## 4b#	.	4F##' 4d## 4b#	.	4B#' 4f## 4dd## 4bb#	.	.
=388	=388	=388	=388	=388	=388	=388	=388	=388
4BBB#	.	4BB# 4F## 4d##X 4b#	.	4F## 4d##X 4b#	.	4B# 4f## 4dd##X 4bb#	.	.
4r	.	4r	.	4r	.	4r	.	.
2r;	.	2r;	.	2r;	.	2r;	.	.
==	==	==	==	==	==	==	==	==
*-	*-	*-	*-	*-	*-	*-	*-	*-
!!!system-decoration: [(s1,s2,s3,s4)]
